!!!COM: Haydn, Franz Joseph
!!!OPR: Symphony in D Major
!!!OTL: Affettuoso 
!!!OMV: 1
!!!SCT: H I:96
!!!SCA: Thematisch-bibliographisches Werkevererzeichnis (A. van Hoboken)
!!!YOR: Dover Edition
!!!EED: Frances Bennion
!!!ENC: Frances Bennion
!!!CDT: 1732/3/31/-1809/5/31/
!!!OCY: Österreich
!!!YEC: Copyright (c) 1994, 2000 Center for Computer Assisted Research in the Humanities
!!!YEM: Rights to all derivative editions reserved.
!!!YEM: Refer to licensing agreement for further details.
!!!YEN: United States of America
**kern	**kern	**kern	**kern	**kern	**kern	**kern	**kern	**kern	**kern	**kern	**kern	**kern	**kern	**kern
*k[f#c#]	*k[]	*k[]	*k[f#c#]	*k[f#c#]	*k[f#c#]	*k[f#c#]	*k[f#c#]	*k[f#c#]	*k[f#c#]	*k[f#c#]	*k[f#c#]	*k[]	*k[]	*k[]
*D:	*D:	*D:	*D:	*D:	*D:	*D:	*D:	*D:	*D:	*D:	*D:	*D:	*D:	*D:
*clefF	*clefG	*clefF4	*clefF	*clefF	*clefC3	*clefF4	*clefF	*clefF	*clefF	*clefF4	*clefF4	*clefF	*clefF	*clefG
*M3/4	*M3/4	*M3/4	*M3/4	*M3/4	*M3/4	*M3/4	*M3/4	*M3/4	*M3/4	*M3/4	*M3/4	*M3/4	*M3/4	*M3/4
*tb32	*tb32	*tb32	*tb32	*tb32	*tb32	*tb32	*tb32	*tb32	*tb32	*tb32	*tb32	*tb32	*tb32	*tb32
=1	=1	=1	=1	=1	=1	=1	=1	=1	=1	=1	=1	=1	=1	=1
2ddd	2cc	2C	2dd	2dd	2d	2d	2ddd	2dd	2dd	2d	2d	2cc	2cc	2cc
4aa	4g	4GG	4a	4a	4A	4A	4aa	4a	4a	4A	4A	4g	4g	4g
=2	=2	=2	=2	=2	=2	=2	=2	=2	=2	=2	=2	=2	=2	=2
4ff#	4e	4C	4f#	4f#	4F#	4F#	4ff#	4f#	4f#	4F#	4F#	4e	4e	4e
2r	2r	2r	8r	2r	2r	2r	2r	2r	2r	2r	2r	2r	2r	2r
.	.	.	8d	.	.	.	.	.	.	.	.	.	.	.
.	.	.	8f#	.	.	.	.	.	.	.	.	.	.	.
.	.	.	8a	.	.	.	.	.	.	.	.	.	.	.
=3	=3	=3	=3	=3	=3	=3	=3	=3	=3	=3	=3	=3	=3	=3
2.r	2.r	2.r	8dd	4f#	4a	4d	2.r	2.r	2.r	2.r	2.r	2.r	2.r	2.r
.	.	.	16.dd	.	.	.	.	.	.	.	.	.	.	.
.	.	.	32ee	.	.	.	.	.	.	.	.	.	.	.
.	.	.	8ff#	4r	4r	4r	.	.	.	.	.	.	.	.
.	.	.	16.ff#	.	.	.	.	.	.	.	.	.	.	.
.	.	.	32gg	.	.	.	.	.	.	.	.	.	.	.
.	.	.	8.aa	4f#	[4a	4d	.	.	.	.	.	.	.	.
.	.	.	16ddd	.	.	.	.	.	.	.	.	.	.	.
=4	=4	=4	=4	=4	=4	=4	=4	=4	=4	=4	=4	=4	=4	=4
2.r	2.r	2.r	4ddd	4g	4a]	4e	2.r	2.r	2.r	2.r	2.r	2.r	2.r	2.r
.	.	.	8ccc#	4.r	4.r	2r	.	.	.	.	.	.	.	.
.	.	.	4r	.	.	.	.	.	.	.	.	.	.	.
.	.	.	8bb	8ff#	8dd	.	.	.	.	.	.	.	.	.
=5	=5	=5	=5	=5	=5	=5	=5	=5	=5	=5	=5	=5	=5	=5
2.r	2.r	2.r	8aa	8ee	8cc#	2r	2.r	2.r	2.r	2.r	2.r	2.r	2.r	2.r
.	.	.	8gg	8dd	8b	.	.	.	.	.	.	.	.	.
.	.	.	8ff#	8cc#	8a	.	.	.	.	.	.	.	.	.
.	.	.	8ee	8b	8g	.	.	.	.	.	.	.	.	.
.	.	.	8dd	8a	8f#	8r	.	.	.	.	.	.	.	.
.	.	.	8gg	8ee	8b	8G	.	.	.	.	.	.	.	.
=6	=6	=6	=6	=6	=6	=6	=6	=6	=6	=6	=6	=6	=6	=6
2.r	2.r	2.r	4ff#	4dd	8a	4A	2.r	2.r	2.r	2.r	2.r	2.r	2.r	2.r
.	.	.	.	.	8g#	.	.	.	.	.	.	.	.	.
.	.	.	8ee	8cc#	8a	2r	.	.	.	.	.	.	.	.
.	.	.	4.r	8b	8g	.	.	.	.	.	.	.	.	.
.	.	.	.	8a	8f#	.	.	.	.	.	.	.	.	.
.	.	.	.	8g	8e	.	.	.	.	.	.	.	.	.
=7	=7	=7	=7	=7	=7	=7	=7	=7	=7	=7	=7	=7	=7	=7
2ddd	2cc	2C	2dd	2dd	2d	2d	2ddd	2dd	2dd	2d	2d	2.cc	2.cc	2cc
4aa	4g	4GG	4a	4a	4A	4A	4aa	4a	4a	4A	4A	.	.	4g
=8	=8	=8	=8	=8	=8	=8	=8	=8	=8	=8	=8	=8	=8	=8
4ff	4c	4C	4f	2f	2F	2F	4ff	[2.dd	4f	4F	4F	2.r	2.r	4c
2r	2r	2r	8r	.	.	.	2r	.	2r	2r	2r	.	.	2r
.	.	.	8A	.	.	.	.	.	.	.	.	.	.	.
.	.	.	8d	4r	4F	4r	.	.	.	.	.	.	.	.
.	.	.	8f	.	.	.	.	.	.	.	.	.	.	.
=9	=9	=9	=9	=9	=9	=9	=9	=9	=9	=9	=9	=9	=9	=9
2.r	2.r	2.r	4f	4.r	2G	2r	2.r	2.dd_	2.r	2.r	2.r	2.r	2.r	2.r
.	.	.	8e	.	.	.	.	.	.	.	.	.	.	.
.	.	.	8g	8B-	.	.	.	.	.	.	.	.	.	.
.	.	.	8f#	8A	4r	4D	.	.	.	.	.	.	.	.
.	.	.	8a	8c	.	.	.	.	.	.	.	.	.	.
=10	=10	=10	=10	=10	=10	=10	=10	=10	=10	=10	=10	=10	=10	=10
2.r	2.r	2.r	4a	4c	2r	4G	2.r	2.dd]	2.r	2.r	2.r	2.r	2.r	2.r
.	.	.	8g	8B-	.	2r	.	.	.	.	.	.	.	.
.	.	.	8b-	8g	.	.	.	.	.	.	.	.	.	.
.	.	.	8a	8f#	8r	.	.	.	.	.	.	.	.	.
.	.	.	8cc	8a	8f#	.	.	.	.	.	.	.	.	.
=11	=11	=11	=11	=11	=11	=11	=11	=11	=11	=11	=11	=11	=11	=11
2.r	2.r	2.r	4cc	4a	4f#	4.r	2.r	4dd	2.r	4r	2.r	2.r	2.r	2.r
.	.	.	8b-	8g	8g	.	.	8ee-	.	8e-	.	.	.	.
.	.	.	8gg	8b-	4.r	8E-	.	8gg	.	8E-	.	.	.	.
.	.	.	8ee-	8g	.	8G	.	8ee-	.	8G	.	.	.	.
.	.	.	8dd	8f	.	8G#	.	8dd	.	8G#	.	.	.	.
=12	=12	=12	=12	=12	=12	=12	=12	=12	=12	=12	=12	=12	=12	=12
2.r	2.r	2.r	4dd	4f	4.r	4A	2.r	4dd	2.r	4A	2.r	[2.g	[2.G	2.r
.	.	.	8cc#	8e	.	2r	.	8cc#	.	8r	.	.	.	.
.	.	.	8a	8c#	8E	.	.	4.r	.	8e	.	.	.	.
.	.	.	8b-	8d	8F	.	.	.	.	8f	.	.	.	.
.	.	.	8g#	8B	8D	.	.	.	.	8d	.	.	.	.
=13	=13	=13	=13	=13	=13	=13	=13	=13	=13	=13	=13	=13	=13	=13
2.r	2.r	2.r	4g#	4B	4D	4AA	2.r	2.r	2.r	4d	2.r	2.g_	2.G_	2.r
.	.	.	8a	8c#	8C#	2r	.	.	.	8c#	.	.	.	.
.	.	.	8e	8A	8C#	.	.	.	.	8c#	.	.	.	.
.	.	.	8f	8G#	8D	.	.	.	.	8d	.	.	.	.
.	.	.	8d	8G#	8F	.	.	.	.	8f	.	.	.	.
=14	=14	=14	=14	=14	=14	=14	=14	=14	=14	=14	=14	=14	=14	=14
2.r	2.r	2.r	4d	4G#	4F	4AA	2.r	2.r	2.r	4f	2.r	2.g_	2.G_	2.r
.	.	.	8c#	8A	8E	2r	.	.	.	8e	.	.	.	.
.	.	.	8e	4.r	4.r	.	.	.	.	4.r	.	.	.	.
.	.	.	8g	.	.	.	.	.	.	.	.	.	.	.
.	.	.	8g	.	.	.	.	.	.	.	.	.	.	.
=15	=15	=15	=15	=15	=15	=15	=15	=15	=15	=15	=15	=15	=15	=15
2.r	2.r	2.r	4.g	4.c#	4.E	4.AA	2.r	8gg	2.r	4.e	2.r	4g]	4G]	2.r
.	.	.	.	.	.	.	.	8ee	.	.	.	.	.	.
.	.	.	.	.	.	.	.	4cc#	.	.	.	2r	2r	.
.	.	.	8g	8d	8D	8BB-	.	.	.	8d	.	.	.	.
.	.	.	8g	8c#	8E	8AA	.	4r	.	8e	.	.	.	.
.	.	.	8g	8d	8D	8BB-	.	.	.	8d	.	.	.	.
=16	=16	=16	=16	=16	=16	=16	=16	=16	=16	=16	=16	=16	=16	=16
2.r	2.r	2.r	4.g	4.c#	4.E	4.AA	2.r	8gg	2.r	4.e	2.r	2.r	2.r	2.r
.	.	.	.	.	.	.	.	8ee	.	.	.	.	.	.
.	.	.	.	.	.	.	.	4cc#	.	.	.	.	.	.
.	.	.	8g	8d	8D	8BB-	.	.	.	8d	.	.	.	.
.	.	.	8g	8c#	8E	8AA	.	4r	.	8e	.	.	.	.
.	.	.	8g	8d	8D	8BB-	.	.	.	8d	.	.	.	.
=17	=17	=17	=17	=17	=17	=17	=17	=17	=17	=17	=17	=17	=17	=17
2.r	2.r	2.r	2.g	2.c#	2.E	2.AA	2.r	8.gg	2.r	2.e	2.r	2.r	2.r	2.r
.	.	.	.	.	.	.	.	16aa	.	.	.	.	.	.
.	.	.	.	.	.	.	.	24bb-	.	.	.	.	.	.
.	.	.	.	.	.	.	.	24aa	.	.	.	.	.	.
.	.	.	.	.	.	.	.	24gg	.	.	.	.	.	.
.	.	.	.	.	.	.	.	24ff	.	.	.	.	.	.
.	.	.	.	.	.	.	.	24ee	.	.	.	.	.	.
.	.	.	.	.	.	.	.	24dd	.	.	.	.	.	.
.	.	.	.	.	.	.	.	4cc#	.	.	.	.	.	.
=18	=18	=18	=18	=18	=18	=18	=18	=18	=18	=18	=18	=18	=18	=18
2.r	2.r	2.r	4.r	8f#	8d	4D	2.r	2.r	2.r	8d	2.r	2.r	2.r	2.r
.	.	.	.	8a	8f#	.	.	.	.	8f#	.	.	.	.
.	.	.	.	8g	8e	2r	.	.	.	8e	.	.	.	.
.	.	.	8a	8f#	8d	.	.	.	.	8d	.	.	.	.
.	.	.	8a	8e	8c#	.	.	.	.	8c#	.	.	.	.
.	.	.	8a	8d	8B	.	.	.	.	8B	.	.	.	.
=19	=19	=19	=19	=19	=19	=19	=19	=19	=19	=19	=19	=19	=19	=19
2.r	2.r	2.r	[2a	8c#	8A	4A	2.r	2.r	2.r	8A	2.r	2.r	2.r	2.r
.	.	.	.	8B	8G	.	.	.	.	8G	.	.	.	.
.	.	.	.	8A	8F#	2r	.	.	.	8F#	.	.	.	.
.	.	.	.	8g	8E	.	.	.	.	8E	.	.	.	.
.	.	.	8.a]	8f#	8D	.	.	.	.	8D	.	.	.	.
.	.	.	.	8g	8e	.	.	.	.	8e	.	.	.	.
.	.	.	32b	.	.	.	.	.	.	.	.	.	.	.
.	.	.	32cc#	.	.	.	.	.	.	.	.	.	.	.
=20	=20	=20	=20	=20	=20	=20	=20	=20	=20	=20	=20	=20	=20	=20
2.r	2.r	2.r	8dd	2a	8f#	4d	2.r	2.r	2.r	8f#	2.r	2.r	2.r	2.r
.	.	.	8cc#	.	8e	.	.	.	.	8e	.	.	.	.
.	.	.	8ee	.	8g	2r	.	.	.	8g	.	.	.	.
.	.	.	8dd	.	8f#	.	.	.	.	8f#	.	.	.	.
.	.	.	8gg	8ee	8c#	.	.	.	.	8c#	.	.	.	.
.	.	.	8ff#	8dd	8d	.	.	.	.	8d	.	.	.	.
=21	=21	=21	=21	=21	=21	=21	=21	=21	=21	=21	=21	=21	=21	=21
2.r	2.r	2.r	8ee	8cc#	8A	4A	2.r	2.r	2.r	8A	2.r	2.r	2.r	2.r
.	.	.	8ee	8cc#	8A	.	.	.	.	8A	.	.	.	.
.	.	.	8ee	8cc#	8A	2r	.	.	.	8A	.	.	.	.
.	.	.	4.r	16c#	16A	.	.	.	.	16A	.	.	.	.
.	.	.	.	16d	16B	.	.	.	.	16B	.	.	.	.
.	.	.	.	8e	8c#	.	.	.	.	8c#	.	.	.	.
.	.	.	.	8f#	8d	.	.	.	.	8d	.	.	.	.
=22	=22	=22	=22	=22	=22	=22	=22	=22	=22	=22	=22	=22	=22	=22
2.r	2.r	2.r	4.r	8g	8e	4A	2.r	2.r	2.r	8e	2.r	2.r	2.r	2.r
.	.	.	.	8a	8f#	.	.	.	.	8f#	.	.	.	.
.	.	.	.	8b	8g	2r	.	.	.	8g	.	.	.	.
.	.	.	8a	8a	8f#	.	.	.	.	8f#	.	.	.	.
.	.	.	8a	8g	8e	.	.	.	.	8e	.	.	.	.
.	.	.	8a	8f#	8d	.	.	.	.	8d	.	.	.	.
=23	=23	=23	=23	=23	=23	=23	=23	=23	=23	=23	=23	=23	=23	=23
2.r	2.r	2.r	[2a	8e	8c#	4A	2.r	2.r	2.r	8c#	2.r	2.r	2.r	2.r
.	.	.	.	8d	8B	.	.	.	.	8B	.	.	.	.
.	.	.	.	8c#	8A	2r	.	.	.	8A	.	.	.	.
.	.	.	.	8B	8G	.	.	.	.	8G	.	.	.	.
.	.	.	8.a]	8A	8F#	.	.	.	.	8F#	.	.	.	.
.	.	.	.	8g	8E	.	.	.	.	8E	.	.	.	.
.	.	.	32b	.	.	.	.	.	.	.	.	.	.	.
.	.	.	32cc#	.	.	.	.	.	.	.	.	.	.	.
=24	=24	=24	=24	=24	=24	=24	=24	=24	=24	=24	=24	=24	=24	=24
2.r	2.r	2.r	8dd	8a	8D	8D	2.r	2.r	2.r	8D	2.r	2.r	2.r	2.r
.	.	.	8ff#	8r	8r	8r	.	.	.	8r	.	.	.	.
.	.	.	8ee	8b	8G	8GG	.	.	.	8G	.	.	.	.
.	.	.	8gg	8r	8r	8r	.	.	.	8r	.	.	.	.
.	.	.	8cc#	8g	8A	8AA	.	.	.	8A	.	.	.	.
.	.	.	8ee	8r	8r	8r	.	.	.	8r	.	.	.	.
=25	=25	=25	=25	=25	=25	=25	=25	=25	=25	=25	=25	=25	=25	=25
2.ddd	2.e	4C	8dd 8d	4A 4f#	8d	8DD	2.ddd	2.ff#	2.dd	2.d	2.F#	2.gg	2.ee	2.cc
.	.	.	4dd 4d	.	4f#	8D	.	.	.	.	.	.	.	.
.	.	4C	.	4dd 4f#	.	8D	.	.	.	.	.	.	.	.
.	.	.	16cc#	.	16e	8D	.	.	.	.	.	.	.	.
.	.	.	16dd	.	16f#	.	.	.	.	.	.	.	.	.
.	.	4C	16ee	4r	16g	8D	.	.	.	.	.	.	.	.
.	.	.	16dd	.	16f#	.	.	.	.	.	.	.	.	.
.	.	.	16cc#	.	16e	8D	.	.	.	.	.	.	.	.
.	.	.	16b	.	16d	.	.	.	.	.	.	.	.	.
=26	=26	=26	=26	=26	=26	=26	=26	=26	=26	=26	=26	=26	=26	=26
8ccc#	8g	8C	8a	8cc# 8g	8c#	8DD	8ccc#	2.gg	2.ee	2.c#	2.E	4ff	4dd	8dd
8.aa	8g	16C	8.aa	4cc# 4g	4e	8D	8.aa	.	.	.	.	.	.	8dd
.	.	16C	.	.	.	.	.	.	.	.	.	.	.	.
.	8g	8C	.	.	.	8D	.	.	.	.	.	4dd	4g	8dd
16bb	.	.	16bb	.	.	.	16bb	.	.	.	.	.	.	.
16gg	8g	8C	16gg	4cc# 4g	4e	8D	16gg	.	.	.	.	.	.	8dd
16aa	.	.	16aa	.	.	.	16aa	.	.	.	.	.	.	.
16ff#	8g	8C	16ff#	.	.	8D	16ff#	.	.	.	.	4dd	4g	8dd
16gg	.	.	16gg	.	.	.	16gg	.	.	.	.	.	.	.
16ee	8g	8C	16ee	8cc# 8g	8e	8D	16ee	.	.	.	.	.	.	8dd
16ff#	.	.	16ff#	.	.	.	16ff#	.	.	.	.	.	.	.
=27	=27	=27	=27	=27	=27	=27	=27	=27	=27	=27	=27	=27	=27	=27
8dd	4cc	4C	8d 8dd	4f# 4dd	8f#	8DD	8dd	2.ff#	2.dd	2.d	2.F#	2.ee	2.cc	4ee
4dd	.	.	4dd 4d	.	4f#	8D	4dd	.	.	.	.	.	.	.
.	2e	4C	.	4d 4ff# 4a	.	8D	.	.	.	.	.	.	.	2cc
16cc#	.	.	16cc#	.	16e	8D	16cc#	.	.	.	.	.	.	.
16dd	.	.	16dd	.	16f#	.	16dd	.	.	.	.	.	.	.
16ee	.	4C	16ee	4r	16g	8D	16ee	.	.	.	.	.	.	.
16dd	.	.	16dd	.	16f#	.	16dd	.	.	.	.	.	.	.
16cc#	.	.	16cc#	.	16e	8D	16cc#	.	.	.	.	.	.	.
16b	.	.	16b	.	16d	.	16b	.	.	.	.	.	.	.
=28	=28	=28	=28	=28	=28	=28	=28	=28	=28	=28	=28	=28	=28	=28
8a	8g	8C	8a	8cc# 8g	8c#	8DD	8a	2.gg	2.cc#	2.c#	2.E	4dd	4g	8dd
8.aa	8g	16C	8.aa	4cc# 4g	4e	8D	8.aa	.	.	.	.	.	.	8dd
.	.	16C	.	.	.	.	.	.	.	.	.	.	.	.
.	8g	8C	.	.	.	8D	.	.	.	.	.	4dd	4g	8dd
16bb	.	.	16bb	.	.	.	16bb	.	.	.	.	.	.	.
16gg	8g	8C	16gg	4cc# 4g	4e	8D	16gg	.	.	.	.	.	.	8dd
16aa	.	.	16aa	.	.	.	16aa	.	.	.	.	.	.	.
16ff#	8g	8C	16ff#	.	.	8D	16ff#	.	.	.	.	4dd	4g	8dd
16gg	.	.	16gg	.	.	.	16gg	.	.	.	.	.	.	.
16ee	8g	8C	16ee	8cc# 8g	8e	8D	16ee	.	.	.	.	.	.	8dd
16ff#	.	.	16ff#	.	.	.	16ff#	.	.	.	.	.	.	.
=29	=29	=29	=29	=29	=29	=29	=29	=29	=29	=29	=29	=29	=29	=29
8dd	4cc	4C	8dd	8dd 8f#	8f#	8D	8dd	8ff#	8dd	8d	8D	4cc	4e	4ee
4ddd	.	.	4ddd	4dd	4dd	4d	4ddd	4ddd	4ddd	4d	4d	.	.	.
.	2r	2r	.	.	.	.	.	.	.	.	.	2r	2r	2r
8aa#	.	.	8aa#	8a#	8a#	8A#	8aa#	8aa#	8aa#	8A#	8A#	.	.	.
8bb	.	.	8bb	8b	8b	8B	8bb	8bb	8bb	8B	8B	.	.	.
8ff#	.	.	8ff#	8f#	8f#	8F#	8ff#	8ff#	8ff#	8F#	8F#	.	.	.
=30	=30	=30	=30	=30	=30	=30	=30	=30	=30	=30	=30	=30	=30	=30
8gg	2.r	2.r	8gg	8g	8g	8G	8gg	8gg	8gg	8G	8G	2.r	2.r	2.r
8dd#	.	.	8dd#	8d#	8d#	8D#	8dd#	8dd#	8dd#	8D#	8D#	.	.	.
8ee	.	.	8ee	8e	8e	8E	8ee	8ee	8ee	8E	8E	.	.	.
8ff#	.	.	8ff#	8f#	8f#	8F#	8ff#	8ff#	8ff#	8F#	8F#	.	.	.
8gg	.	.	8gg	8g	8g	8G	8gg	8gg	8gg	8G	8G	.	.	.
8bb	.	.	8bb	8g	8e	8E	8bb	8bb	8ee	8E	8E	.	.	.
=31	=31	=31	=31	=31	=31	=31	=31	=31	=31	=31	=31	=31	=31	=31
4dd	2.r	2.r	4dd	4f#	4.a	4A	4dd	4ff#	4dd	4A	4A	2.r	2.r	2.r
8cc#	.	.	8cc#	8e	.	4AA	8cc#	8ee	8cc#	8AA	8AA	.	.	.
4.r	.	.	4.r	8b	8g	.	4.r	4.r	4.r	4.r	4.r	.	.	.
.	.	.	.	8a	8f#	4r	.	.	.	.	.	.	.	.
.	.	.	.	8g	8e	.	.	.	.	.	.	.	.	.
=32	=32	=32	=32	=32	=32	=32	=32	=32	=32	=32	=32	=32	=32	=32
2.r	2.r	2.r	4.r	8f#	8d	4D	2.r	2.r	2.r	8d	2.r	2.r	2.r	2.r
.	.	.	.	8a	8f#	.	.	.	.	8f#	.	.	.	.
.	.	.	.	8g	8e	2r	.	.	.	8e	.	.	.	.
.	.	.	8a	8f#	8d	.	.	.	.	8d	.	.	.	.
.	.	.	8a	8e	8c#	.	.	.	.	8c#	.	.	.	.
.	.	.	8a	8d	8B	.	.	.	.	8B	.	.	.	.
=33	=33	=33	=33	=33	=33	=33	=33	=33	=33	=33	=33	=33	=33	=33
2.r	2.r	2.r	[2a	8c#	8A	4A	2.r	8r	2.r	8A	2.r	2.r	2.r	2.r
.	.	.	.	8B	8G	.	.	8aa	.	8G	.	.	.	.
.	.	.	.	8A	8F#	2r	.	8aa	.	8F#	.	.	.	.
.	.	.	.	8g	8E	.	.	8aa	.	8E	.	.	.	.
.	.	.	8.a]	8f#	8D	.	.	16aa	.	8D	.	.	.	.
.	.	.	.	.	.	.	.	16gg	.	.	.	.	.	.
.	.	.	.	8g	8e	.	.	16ff#	.	8e	.	.	.	.
.	.	.	32b	.	.	.	.	16ee	.	.	.	.	.	.
.	.	.	32cc#	.	.	.	.	.	.	.	.	.	.	.
=34	=34	=34	=34	=34	=34	=34	=34	=34	=34	=34	=34	=34	=34	=34
2.r	2.r	2.r	8dd	2a	8f#	4d	2.r	8dd	2.r	8f#	2.r	2.r	2.r	2.r
.	.	.	8cc#	.	8e	.	.	8cc#	.	8e	.	.	.	.
.	.	.	8ee	.	8g	2r	.	8ee	.	8g	.	.	.	.
.	.	.	8dd	.	8f#	.	.	8dd	.	8f#	.	.	.	.
.	.	.	8gg	8ee	8c#	.	.	8gg	.	8c#	.	.	.	.
.	.	.	8ff#	8dd	8d	.	.	8ff#	.	8d	.	.	.	.
=35	=35	=35	=35	=35	=35	=35	=35	=35	=35	=35	=35	=35	=35	=35
2.r	2.r	2.r	8ee	8cc#	8A	4A	2.r	8ee	2.r	8A	2.r	2.r	2.r	2.r
.	.	.	8ee	8cc#	8A	.	.	8ee	.	8A	.	.	.	.
.	.	.	8ee	8cc#	8A	2r	.	8ee	.	8A	.	.	.	.
.	.	.	4.r	16c#	16A	.	.	4.r	.	16A	.	.	.	.
.	.	.	.	16d	16B	.	.	.	.	16B	.	.	.	.
.	.	.	.	8e	8c#	.	.	.	.	8c#	.	.	.	.
.	.	.	.	8f#	8d	.	.	.	.	8d	.	.	.	.
=36	=36	=36	=36	=36	=36	=36	=36	=36	=36	=36	=36	=36	=36	=36
2.r	2.r	2.r	4.r	8g	8e	4A	2.r	2.r	2.r	8e	2.r	2.r	2.r	2.r
.	.	.	.	8a	8f#	.	.	.	.	8f#	.	.	.	.
.	.	.	.	8b	8g	2r	.	.	.	8g	.	.	.	.
.	.	.	8a	8a	8f#	.	.	.	.	8f#	.	.	.	.
.	.	.	8a	8g	8e	.	.	.	.	8e	.	.	.	.
.	.	.	8a	8f#	8d	.	.	.	.	8d	.	.	.	.
=37	=37	=37	=37	=37	=37	=37	=37	=37	=37	=37	=37	=37	=37	=37
2.r	2.r	2.r	[2a	8e	8c#	4A	2.r	8r	2.r	8c#	2.r	2.r	2.r	2.r
.	.	.	.	8d	8B	.	.	8aa	.	8B	.	.	.	.
.	.	.	.	8c#	8A	2r	.	8aa	.	8A	.	.	.	.
.	.	.	.	8B	8G	.	.	8aa	.	8G	.	.	.	.
.	.	.	8.a]	8A	8F#	.	.	16aa	.	8F#	.	.	.	.
.	.	.	.	.	.	.	.	16gg	.	.	.	.	.	.
.	.	.	.	8g	8E	.	.	16ff#	.	8E	.	.	.	.
.	.	.	32b	.	.	.	.	16ee	.	.	.	.	.	.
.	.	.	32cc#	.	.	.	.	.	.	.	.	.	.	.
=38	=38	=38	=38	=38	=38	=38	=38	=38	=38	=38	=38	=38	=38	=38
2.r	2.r	2.r	8dd	8a	8D	8D	2.r	8dd	2.r	8D	2.r	2.r	2.r	2.r
.	.	.	8ff#	8r	8r	8r	.	8ff#	.	8r	.	.	.	.
.	.	.	8ee	8b	8G	8GG	.	8ee	.	8G	.	.	.	.
.	.	.	8gg	8r	8r	8r	.	8gg	.	8r	.	.	.	.
.	.	.	8cc#	8g	8A	8AA	.	8cc#	.	8A	.	.	.	.
.	.	.	8ee	8r	8r	8r	.	8ee	.	8r	.	.	.	.
=39	=39	=39	=39	=39	=39	=39	=39	=39	=39	=39	=39	=39	=39	=39
2.ddd	4.e	4C	16dd	8f#	4A 4f#	4D	2.ddd	4dd	2.dd	2.d	2.F#	2.gg	2.ee	4.cc
.	.	.	16ee	.	.	.	.	.	.	.	.	.	.	.
.	.	.	16ff#	8aa	.	.	.	.	.	.	.	.	.	.
.	.	.	16gg	.	.	.	.	.	.	.	.	.	.	.
.	.	4C	16aa	8ff#	8r	8r	.	4ff#	.	.	.	.	.	.
.	.	.	16bb	.	.	.	.	.	.	.	.	.	.	.
.	8e	.	16ccc#	8dd	8f# 8A	8D	.	.	.	.	.	.	.	8cc
.	.	.	16ddd	.	.	.	.	.	.	.	.	.	.	.
.	8e	4C	16dd	8a	8f# 8A	8D	.	4ff#	.	.	.	.	.	8cc
.	.	.	16ddd	.	.	.	.	.	.	.	.	.	.	.
.	8e	.	16dd	8f#	8f# 8A	8D	.	.	.	.	.	.	.	8cc
.	.	.	16ddd	.	.	.	.	.	.	.	.	.	.	.
=40	=40	=40	=40	=40	=40	=40	=40	=40	=40	=40	=40	=40	=40	=40
2.ccc#	4g	8C	8ccc#	16a	2.A 2.g	4D	2.ccc#	2.gg	2.ee	2.c#	2.E	4ff	4dd	4dd
.	.	.	.	16b	.	.	.	.	.	.	.	.	.	.
.	.	16C	8aa	16cc#	.	.	.	.	.	.	.	.	.	.
.	.	16C	.	16dd	.	.	.	.	.	.	.	.	.	.
.	4g	8C	8gg	16ee	.	8r	.	.	.	.	.	4dd	4g	4dd
.	.	.	.	16ff#	.	.	.	.	.	.	.	.	.	.
.	.	8C	8ee	16gg	.	8D	.	.	.	.	.	.	.	.
.	.	.	.	16aa	.	.	.	.	.	.	.	.	.	.
.	4g	8C	8cc#	16a	.	8D	.	.	.	.	.	4dd	4g	4dd
.	.	.	.	16aa	.	.	.	.	.	.	.	.	.	.
.	.	8C	8a	16a	.	8D	.	.	.	.	.	.	.	.
.	.	.	.	16aa	.	.	.	.	.	.	.	.	.	.
=41	=41	=41	=41	=41	=41	=41	=41	=41	=41	=41	=41	=41	=41	=41
2.ddd	4cc	4C	16dd	8ff#	4f# 4A	4D	2.ddd	2.ff#	2.dd	2.d	2.F#	2.ee	2.cc	4ee
.	.	.	16ee	.	.	.	.	.	.	.	.	.	.	.
.	.	.	16ff#	8aa	.	.	.	.	.	.	.	.	.	.
.	.	.	16gg	.	.	.	.	.	.	.	.	.	.	.
.	8r	4C	16aa	8ff#	8r	8r	.	.	.	.	.	.	.	8r
.	.	.	16bb	.	.	.	.	.	.	.	.	.	.	.
.	8e	.	16ccc#	8dd	8f# 8A	8D	.	.	.	.	.	.	.	8cc
.	.	.	16ddd	.	.	.	.	.	.	.	.	.	.	.
.	8e	4C	16dd	8a	8A 8f#	8D	.	.	.	.	.	.	.	8cc
.	.	.	16ddd	.	.	.	.	.	.	.	.	.	.	.
.	8e	.	16dd	8f#	8A 8f#	8D	.	.	.	.	.	.	.	8cc
.	.	.	16ddd	.	.	.	.	.	.	.	.	.	.	.
=42	=42	=42	=42	=42	=42	=42	=42	=42	=42	=42	=42	=42	=42	=42
2.ccc#	4g	8C	8ccc#	16a	2.g 2.A	4D	2.ccc#	2.gg	2.cc#	2.c#	2.E	4ff	4dd	4dd
.	.	.	.	16b	.	.	.	.	.	.	.	.	.	.
.	.	16C	8aa	16cc#	.	.	.	.	.	.	.	.	.	.
.	.	16C	.	16dd	.	.	.	.	.	.	.	.	.	.
.	4g	8C	8gg	16ee	.	8r	.	.	.	.	.	4dd	4g	4dd
.	.	.	.	16ff#	.	.	.	.	.	.	.	.	.	.
.	.	8C	8ee	16gg	.	8D	.	.	.	.	.	.	.	.
.	.	.	.	16aa	.	.	.	.	.	.	.	.	.	.
.	4g	8C	8cc#	16a	.	8D	.	.	.	.	.	4dd	4g	4dd
.	.	.	.	16aa	.	.	.	.	.	.	.	.	.	.
.	.	8C	8a	16a	.	8D	.	.	.	.	.	.	.	.
.	.	.	.	16aa	.	.	.	.	.	.	.	.	.	.
=43	=43	=43	=43	=43	=43	=43	=43	=43	=43	=43	=43	=43	=43	=43
4ddd	4cc	4C	16dd	16d	16d	16D	4ddd	4ff#	4dd	4d	4D	4cc	4c	4ee
.	.	.	16ee	16e	16e	16E	.	.	.	.	.	.	.	.
.	.	.	16ff#	16f#	16f#	16F#	.	.	.	.	.	.	.	.
.	.	.	16gg	16g	16g	16G	.	.	.	.	.	.	.	.
8r	8r	2r	16aa	16a	16a	16A	8r	8r	8r	8r	8r	8r	8r	8r
.	.	.	16bb	16b	16b	16B	.	.	.	.	.	.	.	.
16ddd	16c	.	16ccc#	16cc#	16cc#	16c#	16ddd	16dd	16dd	16d	16D	16cc	16c	16cc
16ddd	16c	.	16ddd	16dd	16dd	16d	16ddd	16dd	16dd	16d	16D	16cc	16c	16cc
8ddd	8c	.	16dd	16d	16d	16D	8ddd	8dd	8dd	8d	8D	8cc	8c	8cc
.	.	.	16ddd	16dd	16dd	16d	.	.	.	.	.	.	.	.
8ddd	8c	.	16dd	16d	16d	16D	8ddd	8dd	8dd	8d	8D	8cc	8c	8cc
.	.	.	16ddd	16dd	16dd	16d	.	.	.	.	.	.	.	.
=44	=44	=44	=44	=44	=44	=44	=44	=44	=44	=44	=44	=44	=44	=44
4ddd	4c	4C	8bb	8b	8b	8B	4ddd	4dd	4dd	4d	4D	4cc	4c	4cc
.	.	.	8gg	8g	8g	8G	.	.	.	.	.	.	.	.
8r	8r	2r	8dd	8d	8d	8D	8r	8r	8r	8r	8r	8r	8r	8r
16ddd	16c	.	8ddd	8dd	8dd	8d	16ddd	16dd	16dd	16d	16D	16cc	16c	16cc
16ddd	16c	.	.	.	.	.	16ddd	16dd	16dd	16d	16D	16cc	16c	16cc
8ddd	8c	.	8bb	8b	8b	8B	8ddd	8dd	8dd	8d	8D	8cc	8c	8cc
8ddd	8c	.	8gg	8g	8g	8G	8ddd	8dd	8dd	8d	8D	8cc	8c	8cc
=45	=45	=45	=45	=45	=45	=45	=45	=45	=45	=45	=45	=45	=45	=45
4ddd	4c	4C	8aa	8a	8a	8A	4ddd	4dd	4dd	4d	4D	4cc	4c	4cc
.	.	.	8ff#	8f#	8f#	8F#	.	.	.	.	.	.	.	.
8r	8r	2r	8dd	8d	8d	8D	8r	8r	8r	8r	8r	8r	8r	8r
16ddd	16c	.	8ddd	8dd	8dd	8d	16ddd	16dd	16dd	16d	16D	16cc	16c	16cc
16ddd	16c	.	.	.	.	.	16ddd	16dd	16dd	16d	16D	16cc	16c	16cc
8ddd	8c	.	8aa	8a	8a	8A	8ddd	8dd	8dd	8d	8D	8cc	8c	8cc
8ddd	8c	.	8ff#	8f#	8f#	8F#	8ddd	8dd	8dd	8d	8D	8cc	8c	8cc
=46	=46	=46	=46	=46	=46	=46	=46	=46	=46	=46	=46	=46	=46	=46
8ddd	8c	4C	8b	8b	8B	8BB	8ddd	8dd	8dd	8d	8D	8cc	8c	8cc
16ddd	16c	.	8gg	8gg	8g	8G	16ddd	16dd	16dd	16d	16D	16cc	16c	16cc
16ddd	16c	.	.	.	.	.	16ddd	16dd	16dd	16d	16D	16cc	16c	16cc
8ddd	8c	4C	8a	8a	8A	8AA	8ddd	8dd	8dd	8d	8D	8cc	8c	8cc
8ddd	8c	.	8ff#	8ff#	8f#	8F#	8ddd	8dd	8dd	8d	8D	8cc	8c	8cc
8ddd	8c	4C	8g	8g	8G	8GG	8ddd	8dd	8dd	8d	8D	8cc	8c	8cc
8ddd	8c	.	8ee	8ee	8e	8E	8ddd	8dd	8dd	8d	8D	8cc	8c	8cc
=47	=47	=47	=47	=47	=47	=47	=47	=47	=47	=47	=47	=47	=47	=47
4ddd	4c	4C	8f#	8f#	8F#	8FF#	4ddd	4dd	4dd	4d	4D	4cc	4c	4cc
.	.	.	8a	8a	8A	8AA	.	.	.	.	.	.	.	.
8r	8r	2r	8dd	8dd	8d	8D	8r	8r	8r	8r	8r	8r	8r	8r
16ddd	16c	.	8ff#	8ff#	8f#	8F#	16ddd	16dd	16dd	16d	16D	16cc	16c	16cc
16ddd	16c	.	.	.	.	.	16ddd	16dd	16dd	16d	16D	16cc	16c	16cc
8ddd	8c	.	8ee	8ee	8e	8E	8ddd	8dd	8dd	8d	8D	8cc	8c	8cc
8ddd	8c	.	8dd	8dd	8d	8D	8ddd	8dd	8dd	8d	8D	8cc	8c	8cc
=48	=48	=48	=48	=48	=48	=48	=48	=48	=48	=48	=48	=48	=48	=48
2bb	4c	8C	2bb	8d	8g	8G	2bb	2bb	2dd	2G	2G	4cc	4c	4cc
.	.	16C	.	8dd	8g	8G	.	.	.	.	.	.	.	.
.	.	16C	.	.	.	.	.	.	.	.	.	.	.	.
.	8r	8C	.	8dd	8g	8G	.	.	.	.	.	8r	8r	8r
.	16c	8C	.	8dd	8g	8G	.	.	.	.	.	16cc	16c	16cc
.	16c	.	.	.	.	.	.	.	.	.	.	16cc	16c	16cc
4ddd	8c	8C	4dd	8b	8g#	8G#	4ddd	4dd	4b	4G#	4G#	8cc	8c	8cc
.	8c	8C	.	8b	8g#	8G#	.	.	.	.	.	8cc	8c	8cc
=49	=49	=49	=49	=49	=49	=49	=49	=49	=49	=49	=49	=49	=49	=49
8ccc#	4G	4GG	4cc#	4a	4a	4A	8ccc#	8cc#	8a	8A	8A	4g	4G	4g
8eee	.	.	.	.	.	.	8ccc#	8ee	8cc#	8e	8c#	.	.	.
8ddd	2r	2r	8r	2r	2r	2r	8bb	8dd	8b	8d	8B	2r	2r	2r
8ccc#	.	.	8ee	.	.	.	8aa	8cc#	8a	8c#	8A	.	.	.
8bb	.	.	8ee	.	.	.	8gg#	8b	8g#	8B	8G#	.	.	.
8ccc#	.	.	8ee	.	.	.	8aa	8cc#	8a	8c#	8A	.	.	.
=50	=50	=50	=50	=50	=50	=50	=50	=50	=50	=50	=50	=50	=50	=50
2.ddd	4.dd	2.r	16ee	4dd 4e	4b 4e	2.G#	2.bb	2.dd	2.b	2.d	2.B	2.dd	2.dd	4.dd
.	.	.	16gg#	.	.	.	.	.	.	.	.	.	.	.
.	.	.	16bb	.	.	.	.	.	.	.	.	.	.	.
.	.	.	16ccc#	.	.	.	.	.	.	.	.	.	.	.
.	.	.	16ddd	8r	8r	.	.	.	.	.	.	.	.	.
.	.	.	16ccc#	.	.	.	.	.	.	.	.	.	.	.
.	8dd	.	16bb	8dd 8e	8b 8e	.	.	.	.	.	.	.	.	8dd
.	.	.	16aa	.	.	.	.	.	.	.	.	.	.	.
.	8dd	.	16gg#	8e 8dd	8b 8e	.	.	.	.	.	.	.	.	8dd
.	.	.	16ff#	.	.	.	.	.	.	.	.	.	.	.
.	8dd	.	16ee	8dd 8e	8b 8e	.	.	.	.	.	.	.	.	8dd
.	.	.	16dd	.	.	.	.	.	.	.	.	.	.	.
=51	=51	=51	=51	=51	=51	=51	=51	=51	=51	=51	=51	=51	=51	=51
8ccc#	4g	4GG	4cc#	4cc# 4e	4cc# 4e	4A	8aa	8ee	8a	8c#	8A	4g	4g	4dd
8eee	.	.	.	.	.	.	8ccc#	8ee	8cc#	8e	8c#	.	.	.
8ddd	2r	2r	8r	2r	2r	2r	8bb	8dd	8b	8d	8B	2r	2r	2r
8ccc#	.	.	8ee	.	.	.	8aa	8cc#	8a	8c#	8A	.	.	.
8bb	.	.	8ee	.	.	.	8gg#	8b	8g#	8B	8G#	.	.	.
8ccc#	.	.	8ee	.	.	.	8aa	8cc#	8a	8c#	8A	.	.	.
=52	=52	=52	=52	=52	=52	=52	=52	=52	=52	=52	=52	=52	=52	=52
2ddd	2.r	2.r	16ee	4dd 4e	4r	4G#	2bb	2dd	2b	2d	2B	2.r	2.r	2.r
.	.	.	16gg#	.	.	.	.	.	.	.	.	.	.	.
.	.	.	16bb	.	.	.	.	.	.	.	.	.	.	.
.	.	.	16ccc#	.	.	.	.	.	.	.	.	.	.	.
.	.	.	16ddd	4b 4g#	2e#	2E#	.	.	.	.	.	.	.	.
.	.	.	16ccc#	.	.	.	.	.	.	.	.	.	.	.
.	.	.	16bb	.	.	.	.	.	.	.	.	.	.	.
.	.	.	16aa	.	.	.	.	.	.	.	.	.	.	.
4ccc#	.	.	16gg#	4cc# 4g#	.	.	4gg#	4cc#	4cc#	4c#	4G#	.	.	.
.	.	.	16bb	.	.	.	.	.	.	.	.	.	.	.
.	.	.	16aa	.	.	.	.	.	.	.	.	.	.	.
.	.	.	16gg#	.	.	.	.	.	.	.	.	.	.	.
=53	=53	=53	=53	=53	=53	=53	=53	=53	=53	=53	=53	=53	=53	=53
4ccc#	4.r	4GG	16aa	4a 4cc#	4f#	4F#	4aa	4cc#	4a	4c#	4A	4.r	4.r	4.r
.	.	.	16bb	.	.	.	.	.	.	.	.	.	.	.
.	.	.	16ccc#	.	.	.	.	.	.	.	.	.	.	.
.	.	.	16bb	.	.	.	.	.	.	.	.	.	.	.
8r	.	2r	16aa	8r	8r	8r	8r	8r	8r	8r	8r	.	.	.
.	.	.	16gg#	.	.	.	.	.	.	.	.	.	.	.
16ff#	8g	.	16ff#	8cc# 8a	8f#	8F#	16ff#	8cc#	8a	8F#	8F#	8gg	8g	8g
16ee#	.	.	16ee#	.	.	.	16ee#	.	.	.	.	.	.	.
16ff#	8g	.	16ff#	8cc# 8a	8f#	8F#	16ff#	8cc#	8a	8F#	8F#	8gg	8g	8g
16ee#	.	.	16ee#	.	.	.	16ee#	.	.	.	.	.	.	.
16ff#	8g	.	16ff#	8cc# 8a	8f#	8F#	16ff#	8cc#	8a	8F#	8F#	8gg	8g	8g
16gg#	.	.	16gg#	.	.	.	16gg#	.	.	.	.	.	.	.
=54	=54	=54	=54	=54	=54	=54	=54	=54	=54	=54	=54	=54	=54	=54
4aa	4g	4GG	16aa	4cc# 4a	4f#	4F#	4aa	4cc#	4a	4F#	4F#	4gg	4g	4g
.	.	.	16bb	.	.	.	.	.	.	.	.	.	.	.
.	.	.	16ccc#	.	.	.	.	.	.	.	.	.	.	.
.	.	.	16bb	.	.	.	.	.	.	.	.	.	.	.
8r	8r	2r	16aa	8r	8r	8r	8r	8r	8r	8r	8r	8r	8r	8r
.	.	.	16gg#	.	.	.	.	.	.	.	.	.	.	.
16ff#	8g	.	16ff#	8a 8cc#	8f#	8F#	16ff#	8cc#	8a	8F#	8F#	8gg	8g	8g
16ee#	.	.	16ee#	.	.	.	16ee#	.	.	.	.	.	.	.
16ff#	8g	.	16ff#	8cc# 8a	8f#	8F#	16ff#	8cc#	8a	8F#	8F#	8gg	8g	8g
16ee#	.	.	16ee#	.	.	.	16ee#	.	.	.	.	.	.	.
16ff#	8g	.	16ff#	8a 8cc#	8f#	8F#	16ff#	8cc#	8a	8F#	8F#	8gg	8g	8g
16gg#	.	.	16gg#	.	.	.	16gg#	.	.	.	.	.	.	.
=55	=55	=55	=55	=55	=55	=55	=55	=55	=55	=55	=55	=55	=55	=55
2.aa	4g	4GG	16aa	4d#	4f#	4BB	2.aa	2.dd#	2.ff#	4BB	4BB	4gg	4g	4g
.	.	.	16bb	.	.	.	.	.	.	.	.	.	.	.
.	.	.	16ccc#	.	.	.	.	.	.	.	.	.	.	.
.	.	.	16bb	.	.	.	.	.	.	.	.	.	.	.
.	4r	2r	16aa	8r	8r	8r	.	.	.	8r	8r	8r	8r	4r
.	.	.	16gg#	.	.	.	.	.	.	.	.	.	.	.
.	.	.	16ff#	8d# 8a	8f#	8BB	.	.	.	8BB	8BB	8gg	8g	.
.	.	.	16ee	.	.	.	.	.	.	.	.	.	.	.
.	4g	.	16dd#	8d# 8a	8f#	8BB	.	.	.	8BB	8BB	8gg	8g	4ee
.	.	.	16cc#	.	.	.	.	.	.	.	.	.	.	.
.	.	.	16b	8d# 8a	8f#	8BB	.	.	.	8BB	8BB	8gg	8g	.
.	.	.	16a	.	.	.	.	.	.	.	.	.	.	.
=56	=56	=56	=56	=56	=56	=56	=56	=56	=56	=56	=56	=56	=56	=56
4gg#	4dd	2.r	16g#	16g#	4e	4E	4gg#	4ee	4ee	4E	4E	4dd	4dd	4dd
.	.	.	16a	16a	.	.	.	.	.	.	.	.	.	.
.	.	.	16b	16b	.	.	.	.	.	.	.	.	.	.
.	.	.	16a	16a	.	.	.	.	.	.	.	.	.	.
8r	8r	.	16g#	16g#	8r	8r	8r	8r	8r	8r	8r	8r	8r	8r
.	.	.	16f#	16f#	.	.	.	.	.	.	.	.	.	.
16ee	8dd	.	16e	16e	16e	16E	16ee	16ee	16ee	16E	16E	8dd	8dd	8dd
16dd#	.	.	16d#	16d#	16d#	16D#	16dd#	16dd#	16dd#	16D#	16D#	.	.	.
16ee	8dd	.	16e	16e	16e	16E	16ee	16ee	16ee	16E	16E	8dd	8dd	8dd
16dd#	.	.	16d#	16d#	16d#	16D#	16dd#	16dd#	16dd#	16D#	16D#	.	.	.
16ee	8dd	.	16e	16e	16e	16E	16ee	16ee	16ee	16E	16E	8dd	8dd	8dd
16dd#	.	.	16d#	16d#	16d#	16D#	16dd#	16dd#	16dd#	16D#	16D#	.	.	.
=57	=57	=57	=57	=57	=57	=57	=57	=57	=57	=57	=57	=57	=57	=57
4ee	4dd	2.r	8e	8e	4e	4E	4ee	4ee	4ee	4E	4E	4dd	4dd	4dd
.	.	.	8ee	8ee	.	.	.	.	.	.	.	.	.	.
2r	2r	.	8r	8r	8r	8r	2r	2r	2r	2r	2r	2r	2r	2r
.	.	.	8d#	8d#	8d#	8D#	.	.	.	.	.	.	.	.
.	.	.	8e	8e	8e	8E	.	.	.	.	.	.	.	.
.	.	.	8d#	8d#	8d#	8D#	.	.	.	.	.	.	.	.
=58	=58	=58	=58	=58	=58	=58	=58	=58	=58	=58	=58	=58	=58	=58
2.r	2.r	2.r	8e	8e	8e	8E	2.r	2.r	2.r	2.r	2.r	2.r	2.r	2.r
.	.	.	8e#	8e#	8e#	8E#	.	.	.	.	.	.	.	.
.	.	.	8r	8r	8r	8r	.	.	.	.	.	.	.	.
.	.	.	8e#	8e#	8e#	8E#	.	.	.	.	.	.	.	.
.	.	.	8f#	8f#	8f#	8F#	.	.	.	.	.	.	.	.
.	.	.	8e#	8e#	8e#	8E#	.	.	.	.	.	.	.	.
=59	=59	=59	=59	=59	=59	=59	=59	=59	=59	=59	=59	=59	=59	=59
2.r	2.r	2.r	8f#	8f#	8f#	8F#	2.r	2.r	2.r	2.r	2.r	2.r	2.r	2.r
.	.	.	8g#	8g#	8g#	8G#	.	.	.	.	.	.	.	.
.	.	.	8r	8r	8r	8r	.	.	.	.	.	.	.	.
.	.	.	8g#	8g#	8g#	8G#	.	.	.	.	.	.	.	.
.	.	.	8a	8a	8a	8A	.	.	.	.	.	.	.	.
.	.	.	8g#	8g#	8g#	8G#	.	.	.	.	.	.	.	.
=60	=60	=60	=60	=60	=60	=60	=60	=60	=60	=60	=60	=60	=60	=60
2.r	2.r	2.r	8a	8a	8a	8A	2.r	2.r	2.r	2.r	2.r	2.r	2.r	2.r
.	.	.	8a#	8a#	8a#	8A#	.	.	.	.	.	.	.	.
.	.	.	8b	8b	8b	8B	.	.	.	.	.	.	.	.
.	.	.	8a#	8a#	8a#	8A#	.	.	.	.	.	.	.	.
.	.	.	8b	8b	8b	8B	.	.	.	.	.	.	.	.
.	.	.	8cc#	8cc#	8cc#	8c#	.	.	.	.	.	.	.	.
=61	=61	=61	=61	=61	=61	=61	=61	=61	=61	=61	=61	=61	=61	=61
2.r	2.r	2.r	2.dd	2.dd	2.dd	2.d	2.r	2.r	2.r	2.r	2.r	2.r	2.r	2.r
=62	=62	=62	=62	=62	=62	=62	=62	=62	=62	=62	=62	=62	=62	=62
2.bb	2.r	2.r	2.ff	2.b	2.dd	2.G	2.bb	2.ff	2.dd	2.G	2.G	2.r	2.r	2.r
=63	=63	=63	=63	=63	=63	=63	=63	=63	=63	=63	=63	=63	=63	=63
4ccc	2.r	2.r	2.ee	2.g	4cc	4c	4ccc	4ee	4cc	4c	4c	2.r	2.r	2.r
2r	.	.	.	.	2r	4B	2r	2r	2r	2r	2r	.	.	.
.	.	.	.	.	.	4A#	.	.	.	.	.	.	.	.
=64	=64	=64	=64	=64	=64	=64	=64	=64	=64	=64	=64	=64	=64	=64
2.r	2.r	2.r	4dd#	4f#	2.r	4B	2.r	2.r	2.r	2.r	2.r	2.r	2.r	2.r
.	.	.	4dd	4f	.	4G#	.	.	.	.	.	.	.	.
.	.	.	4cc#	4e	.	4A	.	.	.	.	.	.	.	.
=65	=65	=65	=65	=65	=65	=65	=65	=65	=65	=65	=65	=65	=65	=65
2.r	2.r	2.r	8cc#	4f#	2.r	4D	2.r	2.r	2.r	2.r	2.r	2.r	2.r	2.r
.	.	.	8b	.	.	.	.	.	.	.	.	.	.	.
.	.	.	8dd	2r	.	2r	.	.	.	.	.	.	.	.
.	.	.	8cc#	.	.	.	.	.	.	.	.	.	.	.
.	.	.	8ee	.	.	.	.	.	.	.	.	.	.	.
.	.	.	8dd	.	.	.	.	.	.	.	.	.	.	.
=66	=66	=66	=66	=66	=66	=66	=66	=66	=66	=66	=66	=66	=66	=66
2.r	2.r	2.r	8gg	2.r	2.r	2.r	2.r	2.r	2.r	2.r	2.r	2.r	2.r	2.r
.	.	.	8ff#	.	.	.	.	.	.	.	.	.	.	.
.	.	.	8ee	.	.	.	.	.	.	.	.	.	.	.
.	.	.	8dd	.	.	.	.	.	.	.	.	.	.	.
.	.	.	8cc#	.	.	.	.	.	.	.	.	.	.	.
.	.	.	8b	.	.	.	.	.	.	.	.	.	.	.
=67	=67	=67	=67	=67	=67	=67	=67	=67	=67	=67	=67	=67	=67	=67
2.r	2.r	2.r	[4ee	8cc# 8a	8c#	8E	2.r	2.r	2.r	2.r	2.r	2.r	2.r	2.r
.	.	.	.	8a 8cc#	8c#	8E	.	.	.	.	.	.	.	.
.	.	.	16ee]	8a 8cc#	8c#	8E	.	.	.	.	.	.	.	.
.	.	.	16ff#	.	.	.	.	.	.	.	.	.	.	.
.	.	.	16dd#	4.r	4.r	4.r	.	.	.	.	.	.	.	.
.	.	.	16ff#	.	.	.	.	.	.	.	.	.	.	.
.	.	.	16ee	.	.	.	.	.	.	.	.	.	.	.
.	.	.	16ff#	.	.	.	.	.	.	.	.	.	.	.
.	.	.	16dd#	.	.	.	.	.	.	.	.	.	.	.
.	.	.	16ff#	.	.	.	.	.	.	.	.	.	.	.
=68	=68	=68	=68	=68	=68	=68	=68	=68	=68	=68	=68	=68	=68	=68
2.r	2.r	2.r	4ee	8cc# 8a	8c#	8E	2.r	2.r	2.r	2.r	2.r	2.r	2.r	2.r
.	.	.	.	8cc# 8a	8c#	8E	.	.	.	.	.	.	.	.
.	.	.	8r	8cc# 8a	8c#	8E	.	.	.	.	.	.	.	.
.	.	.	16dd#	4.r	4.r	4.r	.	.	.	.	.	.	.	.
.	.	.	16ff#	.	.	.	.	.	.	.	.	.	.	.
.	.	.	8ee	.	.	.	.	.	.	.	.	.	.	.
.	.	.	16cc#	.	.	.	.	.	.	.	.	.	.	.
.	.	.	16ee	.	.	.	.	.	.	.	.	.	.	.
=69	=69	=69	=69	=69	=69	=69	=69	=69	=69	=69	=69	=69	=69	=69
2.r	2.r	2.r	8dd	2.r	2.r	2.r	2.r	2.r	2.r	2.r	2.r	2.r	2.r	2.r
.	.	.	16b	.	.	.	.	.	.	.	.	.	.	.
.	.	.	16dd	.	.	.	.	.	.	.	.	.	.	.
.	.	.	8cc#	.	.	.	.	.	.	.	.	.	.	.
.	.	.	16g#	.	.	.	.	.	.	.	.	.	.	.
.	.	.	16b	.	.	.	.	.	.	.	.	.	.	.
.	.	.	8a	.	.	.	.	.	.	.	.	.	.	.
.	.	.	8cc#	.	.	.	.	.	.	.	.	.	.	.
=70	=70	=70	=70	=70	=70	=70	=70	=70	=70	=70	=70	=70	=70	=70
2.r	2.r	2.r	4e	4d 4G#	4B	4E	2.r	2.r	2.r	2.r	2.r	2.r	2.r	2.r
.	.	.	8f	2r	2r	2r	.	.	.	.	.	.	.	.
.	.	.	8f#	.	.	.	.	.	.	.	.	.	.	.
.	.	.	8g	.	.	.	.	.	.	.	.	.	.	.
.	.	.	8g#	.	.	.	.	.	.	.	.	.	.	.
=71	=71	=71	=71	=71	=71	=71	=71	=71	=71	=71	=71	=71	=71	=71
2.aa	4g	8GG	4a	16c#	16A	4AA	2.cc#	2.aa	2.cc#	2.A	2.A	4gg	4g	4g
.	.	.	.	16e	16c#	.	.	.	.	.	.	.	.	.
.	.	16GG	.	16c#	16A	.	.	.	.	.	.	.	.	.
.	.	16GG	.	16e	16c#	.	.	.	.	.	.	.	.	.
.	8r	4GG	8r	16c#	16A	2r	.	.	.	.	.	8r	8r	8r
.	.	.	.	16e	16c#	.	.	.	.	.	.	.	.	.
.	8g	.	8a	16c#	16A	.	.	.	.	.	.	8gg	8g	8g
.	.	.	.	16e	16c#	.	.	.	.	.	.	.	.	.
.	8g	4r	8a	16c#	16A	.	.	.	.	.	.	8gg	8g	8g
.	.	.	.	16e	16c#	.	.	.	.	.	.	.	.	.
.	8g	.	8a	16c#	16A	.	.	.	.	.	.	8gg	8g	8g
.	.	.	.	16e	16c#	.	.	.	.	.	.	.	.	.
=72	=72	=72	=72	=72	=72	=72	=72	=72	=72	=72	=72	=72	=72	=72
4gg#	2.dd	2.r	4.b	16B	16d	4AA	4dd	4.b	4.b	[2.AA	[2.AA	2.dd	2.dd	2.dd
.	.	.	.	16g#	16e	.	.	.	.	.	.	.	.	.
.	.	.	.	16B	16d	.	.	.	.	.	.	.	.	.
.	.	.	.	16g#	16e	.	.	.	.	.	.	.	.	.
2r	.	.	.	16B	16d	2r	2r	.	.	.	.	.	.	.
.	.	.	.	16g#	16e	.	.	.	.	.	.	.	.	.
.	.	.	8cc#	16B	16d	.	.	8cc#	8cc#	.	.	.	.	.
.	.	.	.	16g#	16e	.	.	.	.	.	.	.	.	.
.	.	.	16ee	16B	16d	.	.	16ee	16ee	.	.	.	.	.
.	.	.	16dd	16g#	16e	.	.	16dd	16dd	.	.	.	.	.
.	.	.	16cc#	16B	16d	.	.	16cc#	16cc#	.	.	.	.	.
.	.	.	16b	16g#	16e	.	.	16b	16b	.	.	.	.	.
=73	=73	=73	=73	=73	=73	=73	=73	=73	=73	=73	=73	=73	=73	=73
4aa	4g	8GG	8ee	16c#	16c#	4AA	4cc#	8ee	8ee	2.AA_	2.AA_	4g	4g	4g
.	.	.	.	16a	16e	.	.	.	.	.	.	.	.	.
.	.	16GG	8ee	16c#	16c#	.	.	8ee	8ee	.	.	.	.	.
.	.	16GG	.	16a	16e	.	.	.	.	.	.	.	.	.
2r	8r	4GG	8ee	16c#	16c#	2r	2r	8ee	8ee	.	.	8r	8r	8r
.	.	.	.	16a	16e	.	.	.	.	.	.	.	.	.
.	8g	.	8r	16c#	16c#	.	.	8r	8r	.	.	8g	8G	8g
.	.	.	.	16a	16e	.	.	.	.	.	.	.	.	.
.	8g	4r	16dd	16c#	16c#	.	.	16dd	16dd	.	.	8g	8G	8g
.	.	.	16cc#	16a	16e	.	.	16cc#	16cc#	.	.	.	.	.
.	8g	.	16b	16c#	16c#	.	.	16b	16b	.	.	8g	8G	8g
.	.	.	16a	16a	16e	.	.	16a	16a	.	.	.	.	.
=74	=74	=74	=74	=74	=74	=74	=74	=74	=74	=74	=74	=74	=74	=74
4gg#	2.dd	2.r	4.b	16B	16d	4AA	4dd	4.b	4.b	2.AA_	2.AA_	2.cc	2.c	2.dd
.	.	.	.	16g#	16e	.	.	.	.	.	.	.	.	.
.	.	.	.	16B	16d	.	.	.	.	.	.	.	.	.
.	.	.	.	16g#	16e	.	.	.	.	.	.	.	.	.
2r	.	.	.	16B	16d	2r	2r	.	.	.	.	.	.	.
.	.	.	.	16g#	16e	.	.	.	.	.	.	.	.	.
.	.	.	8cc#	16B	16d	.	.	8cc#	8cc#	.	.	.	.	.
.	.	.	.	16g#	16e	.	.	.	.	.	.	.	.	.
.	.	.	16ee	16B	16d	.	.	16ee	16ee	.	.	.	.	.
.	.	.	16dd	16g#	16e	.	.	16dd	16dd	.	.	.	.	.
.	.	.	16cc#	16B	16d	.	.	16cc#	16cc#	.	.	.	.	.
.	.	.	16b	16g#	16e	.	.	16b	16b	.	.	.	.	.
=75	=75	=75	=75	=75	=75	=75	=75	=75	=75	=75	=75	=75	=75	=75
4aa	4g	4GG	4a	16e	4c#	4AA	2.r	4a	4a	4AA]	4AA]	[2.g	[2.G	4dd
.	.	.	.	16cc#	.	.	.	.	.	.	.	.	.	.
.	.	.	.	16e	.	.	.	.	.	.	.	.	.	.
.	.	.	.	16cc#	.	.	.	.	.	.	.	.	.	.
8r	2r	2r	2r	16e	2r	2r	.	2r	2r	2r	2r	.	.	2r
.	.	.	.	16cc#	.	.	.	.	.	.	.	.	.	.
8aa	.	.	.	16e	.	.	.	.	.	.	.	.	.	.
.	.	.	.	16cc#	.	.	.	.	.	.	.	.	.	.
8aa	.	.	.	16e	.	.	.	.	.	.	.	.	.	.
.	.	.	.	16cc#	.	.	.	.	.	.	.	.	.	.
8aa	.	.	.	16e	.	.	.	.	.	.	.	.	.	.
.	.	.	.	16cc#	.	.	.	.	.	.	.	.	.	.
=76	=76	=76	=76	=76	=76	=76	=76	=76	=76	=76	=76	=76	=76	=76
4.bb	2.r	2.r	2.g#	16e	4e	2.r	2.r	2.r	2.r	2.r	2.r	2.g_	2.G_	2.r
.	.	.	.	16dd	.	.	.	.	.	.	.	.	.	.
.	.	.	.	16e	.	.	.	.	.	.	.	.	.	.
.	.	.	.	16dd	.	.	.	.	.	.	.	.	.	.
.	.	.	.	16e	2r	.	.	.	.	.	.	.	.	.
.	.	.	.	16dd	.	.	.	.	.	.	.	.	.	.
8ccc#	.	.	.	16e	.	.	.	.	.	.	.	.	.	.
.	.	.	.	16dd	.	.	.	.	.	.	.	.	.	.
16eee	.	.	.	16e	.	.	.	.	.	.	.	.	.	.
16ddd	.	.	.	16dd	.	.	.	.	.	.	.	.	.	.
16ccc#	.	.	.	16e	.	.	.	.	.	.	.	.	.	.
16bb	.	.	.	16dd	.	.	.	.	.	.	.	.	.	.
=77	=77	=77	=77	=77	=77	=77	=77	=77	=77	=77	=77	=77	=77	=77
8eee	2.r	2.r	4a	16e	4A	2.r	2.r	2.r	2.r	2.r	2.r	2.g_	2.G_	2.r
.	.	.	.	16cc#	.	.	.	.	.	.	.	.	.	.
8eee	.	.	.	16e	.	.	.	.	.	.	.	.	.	.
.	.	.	.	16cc#	.	.	.	.	.	.	.	.	.	.
8eee	.	.	2r	16e	2r	.	.	.	.	.	.	.	.	.
.	.	.	.	16cc#	.	.	.	.	.	.	.	.	.	.
8r	.	.	.	16e	.	.	.	.	.	.	.	.	.	.
.	.	.	.	16cc#	.	.	.	.	.	.	.	.	.	.
16ddd	.	.	.	16e	.	.	.	.	.	.	.	.	.	.
16ccc#	.	.	.	16cc#	.	.	.	.	.	.	.	.	.	.
16bb	.	.	.	16e	.	.	.	.	.	.	.	.	.	.
16aa	.	.	.	16cc#	.	.	.	.	.	.	.	.	.	.
=78	=78	=78	=78	=78	=78	=78	=78	=78	=78	=78	=78	=78	=78	=78
4.bb	2.r	2.r	2.gg#	16e	4e	2.r	2.r	2.r	2.r	2.r	2.r	2.g]	2.G]	2.r
.	.	.	.	16dd	.	.	.	.	.	.	.	.	.	.
.	.	.	.	16e	.	.	.	.	.	.	.	.	.	.
.	.	.	.	16dd	.	.	.	.	.	.	.	.	.	.
.	.	.	.	16e	2r	.	.	.	.	.	.	.	.	.
.	.	.	.	16dd	.	.	.	.	.	.	.	.	.	.
8ccc#	.	.	.	16e	.	.	.	.	.	.	.	.	.	.
.	.	.	.	16dd	.	.	.	.	.	.	.	.	.	.
16eee	.	.	.	16e	.	.	.	.	.	.	.	.	.	.
16ddd	.	.	.	16dd	.	.	.	.	.	.	.	.	.	.
16ccc#	.	.	.	16e	.	.	.	.	.	.	.	.	.	.
16bb	.	.	.	16dd	.	.	.	.	.	.	.	.	.	.
=79	=79	=79	=79	=79	=79	=79	=79	=79	=79	=79	=79	=79	=79	=79
8aa	8g	8GG	8aa 8a	8cc#	8A	8A	8aa	8aa	8a	4A	4A	8gg	8g	8g
8aa	8g	8GG	8aa 8a	8a	8A	8A	8aa	8aa	8a	.	.	8gg	8g	8g
8aa	8g	8GG	8aa 8a	8a	8A	8A	8aa	8aa	8a	8r	4r	8gg	8g	8g
4.r	4.r	4.r	16A	8r	4.r	4.r	4.r	4.r	4.r	16A	.	4.r	4.r	4.r
.	.	.	16B	.	.	.	.	.	.	16B	.	.	.	.
.	.	.	8c#	8A	.	.	.	.	.	8c#	8A	.	.	.
.	.	.	8d	8B	.	.	.	.	.	8d	8B	.	.	.
=80	=80	=80	=80	=80	=80	=80	=80	=80	=80	=80	=80	=80	=80	=80
8aa	8G	8GG	8e	8c#	8A	8A	8aa	8aa	8a	8e	8c#	8gg	8g	8g
8aa	8G	8GG	8e	8c#	8A	8A	8aa	8aa	8a	8e	8c#	8gg	8g	8g
8aa	8G	8GG	8e	8c#	8A	8A	8aa	8aa	8a	8e	8c#	8gg	8g	8g
4.r	4.r	4.r	16c#	16A	4.r	4.r	4.r	4.r	4.r	16c#	16A	4.r	4.r	4.r
.	.	.	16d	16B	.	.	.	.	.	16d	16B	.	.	.
.	.	.	8e	8c#	.	.	.	.	.	8e	8c#	.	.	.
.	.	.	8f#	8d	.	.	.	.	.	8f#	8d	.	.	.
=81	=81	=81	=81	=81	=81	=81	=81	=81	=81	=81	=81	=81	=81	=81
8aa	8G	8GG	8g	8e	8C#	8A	8aa	8aa	8a	8g	8e	8gg	8g	8g
8aa	8G	8GG	8g	8e	8C#	8A	8aa	8aa	8a	8g	8e	8gg	8g	8g
8aa	8G	8GG	8g	8e	8C#	8A	8aa	8aa	8a	8g	8e	8gg	8g	8g
4.r	4.r	4.r	4.r	4.r	4.r	4.r	4.r	16a	8r	4.r	4.r	4.r	4.r	4.r
.	.	.	.	.	.	.	.	16b	.	.	.	.	.	.
.	.	.	.	.	.	.	.	8cc#	8a	.	.	.	.	.
.	.	.	.	.	.	.	.	8dd	8b	.	.	.	.	.
=82	=82	=82	=82	=82	=82	=82	=82	=82	=82	=82	=82	=82	=82	=82
2.r	2.r	2.r	2.r	2.r	2.r	2.r	2.r	8ee	8cc#	2.r	2.r	8gg	8g	2.r
.	.	.	.	.	.	.	.	8ee	8cc#	.	.	8gg	8g	.
.	.	.	.	.	.	.	.	8ee	8cc#	.	.	8gg	8g	.
.	.	.	.	.	.	.	.	16cc#	16a	.	.	4.r	4.r	.
.	.	.	.	.	.	.	.	16dd	16b	.	.	.	.	.
.	.	.	.	.	.	.	.	8ee	8cc#	.	.	.	.	.
.	.	.	.	.	.	.	.	8ff#	8dd	.	.	.	.	.
=83	=83	=83	=83	=83	=83	=83	=83	=83	=83	=83	=83	=83	=83	=83
2.r	2.r	2.r	2.r	2.r	2.r	2.r	2.r	8gg	8ee	2.r	2.r	8gg	8g	2.r
.	.	.	.	.	.	.	.	8gg	8ee	.	.	8gg	8g	.
.	.	.	.	.	.	.	.	8gg	8ee	.	.	8gg	8g	.
.	.	.	.	.	.	.	.	4.r	4.r	.	.	4.r	4.r	.
=84	=84	=84	=84	=84	=84	=84	=84	=84	=84	=84	=84	=84	=84	=84
8ff#	8e	2.r	8ff# 8cc#	8cc# 8f#	8A#	8AA#	8ff#	8ff#	8cc#	8AA#	8AA#	8ee	8e	8e
8ff#	8e	.	8ff# 8cc#	8cc# 8f#	8A#	8AA#	8ff#	8ff#	8cc#	8AA#	8AA#	8ee	8e	8e
8ff#	8e	.	8ff# 8cc#	8cc# 8f#	8A#	8AA#	8ff#	8ff#	8cc#	8AA#	8AA#	8ee	8e	8e
4.r	4.r	.	4.r	4.r	4.r	4.r	4.r	4.r	4.r	4.r	4.r	4.r	4.r	4.r
=85	=85	=85	=85	=85	=85	=85	=85	=85	=85	=85	=85	=85	=85	=85
2.r	2.r	2.r	8ccc#	8ee	8a#	2.r	2.r	8gg	2.r	4A#	4A#	2.r	2.r	2.r
.	.	.	8ccc#	8ee	8a#	.	.	8gg	.	.	.	.	.	.
.	.	.	8ccc#	8ee	8a#	.	.	8gg	.	2r	2r	.	.	.
.	.	.	4.r	4.r	4.r	.	.	4.r	.	.	.	.	.	.
=86	=86	=86	=86	=86	=86	=86	=86	=86	=86	=86	=86	=86	=86	=86
2.ff#	4e	2.r	8dd	8b	4B	4BB	2.ff#	8dd	8b	4BB	4BB	4ee	4e	4e
.	.	.	8ff#	8dd	.	.	.	8ff#	8dd	.	.	.	.	.
.	8r	.	8ee	8cc#	8r	8r	.	8ee	8cc#	8r	8r	8r	8r	8r
.	8e	.	8dd	8b	8F#	8F#	.	8dd	8b	8F#	8F#	8ee	8e	8e
.	8e	.	8cc#	8a#	8F#	8F#	.	8cc#	8a#	8F#	8F#	8ee	8e	8e
.	8e	.	8dd	8b	8F#	8F#	.	8dd	8b	8F#	8F#	8ee	8e	8e
=87	=87	=87	=87	=87	=87	=87	=87	=87	=87	=87	=87	=87	=87	=87
8ee	4e	2.r	8ee	8cc#	4.F#	4.F#	8ee	8ee	8cc#	4.F#	4.F#	4ee	4e	4e
8gg	.	.	8gg	8ee	.	.	8gg	8gg	8ee	.	.	.	.	.
8ff#	8r	.	8ff#	8dd	.	.	8ff#	8ff#	8dd	.	.	8r	8r	8r
8ee	8e	.	8ee	8cc#	16G#	16G#	8ee	8ee	8cc#	16G#	16G#	8ee	8e	8e
.	.	.	.	.	16A#	16A#	.	.	.	16A#	16A#	.	.	.
8dd	8e	.	8dd	8b	8B	8B	8dd	8dd	8b	8B	8B	8ee	8e	8e
8cc#	8e	.	8cc#	8a#	8c#	8c#	8cc#	8cc#	8a#	8c#	8c#	8ee	8e	8e
=88	=88	=88	=88	=88	=88	=88	=88	=88	=88	=88	=88	=88	=88	=88
8b	[2.e	2.r	8b	[2.f#	8d	8d	8b	8b	[2.f#	8d	8d	[2.ee	[2.e	[2.e
8a#	.	.	8a#	.	8c#	8c#	8a#	8a#	.	8c#	8c#	.	.	.
8cc#	.	.	8cc#	.	8e	8e	8cc#	8cc#	.	8e	8e	.	.	.
8b	.	.	8b	.	8d	8d	8b	8b	.	8d	8d	.	.	.
8dd	.	.	8dd	.	8b	8B	8dd	8dd	.	8B	8B	.	.	.
8cc#	.	.	8cc#	.	8a#	8A#	8cc#	8cc#	.	8A#	8A#	.	.	.
=89	=89	=89	=89	=89	=89	=89	=89	=89	=89	=89	=89	=89	=89	=89
8ee	4e]	2.r	8ee	4f#]	8cc#	8c#	8ee	8ee	4f#]	8c#	8c#	4ee]	4e]	4e]
8dd	.	.	8dd	.	8b	8B	8dd	8dd	.	8B	8B	.	.	.
8ff#	2r	.	8ff#	8dd	2r	2r	8dd	8ff#	8dd	2r	2r	2r	2r	2r
8ee	.	.	8ee	8cc#	.	.	8cc#	8ee	8cc#	.	.	.	.	.
8gg	.	.	8gg	8ee	.	.	8ee	8gg	8ee	.	.	.	.	.
8ff#	.	.	8ff#	8dd	.	.	8dd	8ff#	8dd	.	.	.	.	.
=90	=90	=90	=90	=90	=90	=90	=90	=90	=90	=90	=90	=90	=90	=90
8aa	2.r	2.r	8aa	8ff#	4.r	4.r	8ff#	8aa	8ff#	4.r	4.r	2.r	2.r	2.r
8gg	.	.	8gg	8ee	.	.	8ee	8gg	8ee	.	.	.	.	.
8bb	.	.	8bb	8gg	.	.	8gg	8bb	8gg	.	.	.	.	.
8aa	.	.	8aa	8ff#	8B	8BB	8ff#	8aa	8ff#	8BB	8BB	.	.	.
8ccc	.	.	8ccc	8aa	8B	8BB	8aa	8ccc	8aa	8BB	8BB	.	.	.
8bb	.	.	8bb	8gg	8B	8BB	8gg	8bb	8gg	8BB	8BB	.	.	.
=91	=91	=91	=91	=91	=91	=91	=91	=91	=91	=91	=91	=91	=91	=91
8aa	2.r	2.r	8aa	8ff#	4.B	4.BB	8ff#	8aa	8ff#	4.BB	4.BB	2.r	2.r	2.r
8gg	.	.	8gg	8ee	.	.	8ee	8gg	8ee	.	.	.	.	.
8ff#	.	.	8ff#	8dd#	.	.	8dd#	8ff#	8dd#	.	.	.	.	.
16bb	.	.	16bb	16ee	16c#	16C#	16ee	16bb	16ee	16C#	16C#	.	.	.
16aa	.	.	16aa	16ff#	16d#	16D#	16ff#	16aa	16ff#	16D#	16D#	.	.	.
8gg	.	.	8gg	8b	8e	8E	8b	8gg	8b	8E	8E	.	.	.
8ff#	.	.	8ff#	8b	8f#	8F#	8b	8ff#	8b	8F#	8F#	.	.	.
=92	=92	=92	=92	=92	=92	=92	=92	=92	=92	=92	=92	=92	=92	=92
8ee	2.r	2.r	8ee	[2.b	8g	8G	8ee	8ee	[2.b	8G	8G	2.r	2.r	2.r
8dd#	.	.	8dd#	.	8f#	8F#	8dd#	8dd#	.	8F#	8F#	.	.	.
8ff#	.	.	8ff#	.	8a	8A	8ff#	8ff#	.	8A	8A	.	.	.
8ee	.	.	8ee	.	8g	8G	8ee	8ee	.	8G	8G	.	.	.
8gg	.	.	8gg	.	8e	8E	8gg	8gg	.	8E	8E	.	.	.
8ff#	.	.	8ff#	.	8d#	8D#	8ff#	8ff#	.	8D#	8D#	.	.	.
=93	=93	=93	=93	=93	=93	=93	=93	=93	=93	=93	=93	=93	=93	=93
8aa	2.r	2.r	8aa	4b]	8f#	8F#	8aa	8aa	4b]	8F#	8F#	2.r	2.r	2.r
8gg	.	.	8gg	.	8e	8E	8gg	8gg	.	8E	8E	.	.	.
2r	.	.	4r	4r	4r	2r	2r	8cc	2r	2r	2r	.	.	.
.	.	.	.	.	.	.	.	8b	.	.	.	.	.	.
.	.	.	8ee	8g	[4b	.	.	4r	.	.	.	.	.	.
.	.	.	8dd#	8f#	.	.	.	.	.	.	.	.	.	.
=94	=94	=94	=94	=94	=94	=94	=94	=94	=94	=94	=94	=94	=94	=94
2.r	2.r	2.r	8ff#	8a	4b]	2.r	2.r	4r	2.r	2.r	2.r	2.r	2.r	2.r
.	.	.	8ee	8g	.	.	.	.	.	.	.	.	.	.
.	.	.	4r	4r	4r	.	.	8cc	.	.	.	.	.	.
.	.	.	.	.	.	.	.	8b	.	.	.	.	.	.
.	.	.	8gg	[4b	8e	.	.	4r	.	.	.	.	.	.
.	.	.	8ff#	.	8d#	.	.	.	.	.	.	.	.	.
=95	=95	=95	=95	=95	=95	=95	=95	=95	=95	=95	=95	=95	=95	=95
2.r	2.r	2.r	8aa	4b]	8f#	2.r	2.r	4r	2.r	2.r	2.r	2.r	2.r	2.r
.	.	.	8gg	.	8e	.	.	.	.	.	.	.	.	.
.	.	.	4r	4r	4r	.	.	8cc	.	.	.	.	.	.
.	.	.	.	.	.	.	.	8b	.	.	.	.	.	.
.	.	.	8ee	8g	[4b	.	.	4r	.	.	.	.	.	.
.	.	.	8dd#	8f#	.	.	.	.	.	.	.	.	.	.
=96	=96	=96	=96	=96	=96	=96	=96	=96	=96	=96	=96	=96	=96	=96
4r	2.r	2.r	8ff#	8a	4b]	2.r	2.r	2.r	2.r	2.r	2.r	2.r	2.r	2.r
.	.	.	8ee	8g	.	.	.	.	.	.	.	.	.	.
8ccc	.	.	4r	4r	4r	.	.	.	.	.	.	.	.	.
8bb	.	.	.	.	.	.	.	.	.	.	.	.	.	.
4r	.	.	8gg	[4b	8e	.	.	.	.	.	.	.	.	.
.	.	.	8ff#	.	8d#	.	.	.	.	.	.	.	.	.
=97	=97	=97	=97	=97	=97	=97	=97	=97	=97	=97	=97	=97	=97	=97
4r	2.r	2.r	8aa	4b]	8f#	2.r	2.r	2.r	2.r	2.r	2.r	2.r	2.r	2.r
.	.	.	8gg	.	8e	.	.	.	.	.	.	.	.	.
8ccc	.	.	4r	2r	2r	.	.	.	.	.	.	.	.	.
8bb	.	.	.	.	.	.	.	.	.	.	.	.	.	.
4r	.	.	8gg	.	.	.	.	.	.	.	.	.	.	.
.	.	.	8ff#	.	.	.	.	.	.	.	.	.	.	.
=98	=98	=98	=98	=98	=98	=98	=98	=98	=98	=98	=98	=98	=98	=98
2.r	2.r	2.r	8aa	4r	4r	4r	2.r	2.r	2.r	2.r	2.r	2.r	2.r	2.r
.	.	.	8gg	.	.	.	.	.	.	.	.	.	.	.
.	.	.	4r	4b 4g	4e	4e	.	.	.	.	.	.	.	.
.	.	.	8gg	4r	4r	4r	.	.	.	.	.	.	.	.
.	.	.	8ff#	.	.	.	.	.	.	.	.	.	.	.
=99	=99	=99	=99	=99	=99	=99	=99	=99	=99	=99	=99	=99	=99	=99
2.r	2.r	2.r	8aa	4r	4r	4r	2.r	2.r	2.r	2.r	2.r	2.r	2.r	2.r
.	.	.	8gg	.	.	.	.	.	.	.	.	.	.	.
.	.	.	4r	4g 4b	4d	4d	.	.	.	.	.	.	.	.
.	.	.	8gg	4r	4r	4r	.	.	.	.	.	.	.	.
.	.	.	8ff#	.	.	.	.	.	.	.	.	.	.	.
=100	=100	=100	=100	=100	=100	=100	=100	=100	=100	=100	=100	=100	=100	=100
2.r	2.r	2.r	8aa	4r	4r	4r	2.r	2.r	2.r	2.r	2.r	2.r	2.r	2.r
.	.	.	8gg	.	.	.	.	.	.	.	.	.	.	.
.	.	.	4r	4f 4b	4G	4d	.	.	.	.	.	.	.	.
.	.	.	8gg	4r	4r	4r	.	.	.	.	.	.	.	.
.	.	.	8ff	.	.	.	.	.	.	.	.	.	.	.
=101	=101	=101	=101	=101	=101	=101	=101	=101	=101	=101	=101	=101	=101	=101
2.r	2.r	2.r	8aa	4r	4r	4r	2.r	2.r	2.r	2.r	2.r	2.r	2.r	2.r
.	.	.	8gg	.	.	.	.	.	.	.	.	.	.	.
.	.	.	4r	4b 4f	4G	4d	.	.	.	.	.	.	.	.
.	.	.	8gg	4r	4r	4r	.	.	.	.	.	.	.	.
.	.	.	8ff	.	.	.	.	.	.	.	.	.	.	.
=102	=102	=102	=102	=102	=102	=102	=102	=102	=102	=102	=102	=102	=102	=102
2r	2.r	2.r	4aa	2.r	2.r	2.r	2.r	2r	2r	2r	2.r	2.r	2.r	2.r
.	.	.	4gg	.	.	.	.	.	.	.	.	.	.	.
4ddd	.	.	4r	.	.	.	.	4bb	4ff	4G	.	.	.	.
=103	=103	=103	=103	=103	=103	=103	=103	=103	=103	=103	=103	=103	=103	=103
4ddd	2.r	2.r	2.r	2.r	2.r	2.r	2.r	4bb	4ff	4G	2.r	2.r	2.r	2.r
2r	.	.	.	.	.	.	.	2r	2r	2r	.	.	.	.
=104	=104	=104	=104	=104	=104	=104	=104	=104	=104	=104	=104	=104	=104	=104
4ee	2.r	2.r	4G 4cc 4e	16G	4e	8C	4ee	2.ee	2.g	8C	8C	2.r	2.r	2.r
.	.	.	.	16e	.	.	.	.	.	.	.	.	.	.
.	.	.	.	16G	.	16c	.	.	.	16c	16c	.	.	.
.	.	.	.	16e	.	16B	.	.	.	16B	16B	.	.	.
4gg	.	.	8r	16G	4g	8c	4ee	.	.	8c	8c	.	.	.
.	.	.	.	16e	.	.	.	.	.	.	.	.	.	.
.	.	.	8cc	16G	.	8C	.	.	.	8C	8C	.	.	.
.	.	.	.	16e	.	.	.	.	.	.	.	.	.	.
4ccc	.	.	8cc	16G	4cc	8C	4ee	.	.	8C	8C	.	.	.
.	.	.	.	16e	.	.	.	.	.	.	.	.	.	.
.	.	.	8cc	16G	.	8C	.	.	.	8C	8C	.	.	.
.	.	.	.	16e	.	.	.	.	.	.	.	.	.	.
=105	=105	=105	=105	=105	=105	=105	=105	=105	=105	=105	=105	=105	=105	=105
2.bb	2.r	2.r	4.dd	16G	2.b	8C	2.ff	2.ff	2b	8C	8C	2.r	2.r	2.r
.	.	.	.	16f	.	.	.	.	.	.	.	.	.	.
.	.	.	.	16G	.	16c	.	.	.	16c	16c	.	.	.
.	.	.	.	16f	.	16B	.	.	.	16B	16B	.	.	.
.	.	.	.	16G	.	8c	.	.	.	8c	8c	.	.	.
.	.	.	.	16f	.	.	.	.	.	.	.	.	.	.
.	.	.	8ee	16G	.	8C	.	.	.	8C	8C	.	.	.
.	.	.	.	16f	.	.	.	.	.	.	.	.	.	.
.	.	.	16gg	16G	.	8C	.	.	4dd	8C	8C	.	.	.
.	.	.	16ff	16f	.	.	.	.	.	.	.	.	.	.
.	.	.	16ee	16G	.	8c	.	.	.	8c	8c	.	.	.
.	.	.	16dd	16f	.	.	.	.	.	.	.	.	.	.
=106	=106	=106	=106	=106	=106	=106	=106	=106	=106	=106	=106	=106	=106	=106
4ccc	2.r	2.r	8gg	16G	4cc	8C	4ee	2.ee	2.g	8C	8C	2.r	2.r	2.r
.	.	.	.	16e	.	.	.	.	.	.	.	.	.	.
.	.	.	8gg	16G	.	16c	.	.	.	16c	16c	.	.	.
.	.	.	.	16e	.	16B	.	.	.	16B	16B	.	.	.
4eee	.	.	4gg	16G	4ee	8c	4gg	.	.	8c	8c	.	.	.
.	.	.	.	16e	.	.	.	.	.	.	.	.	.	.
.	.	.	.	16G	.	8C	.	.	.	8C	8C	.	.	.
.	.	.	.	16e	.	.	.	.	.	.	.	.	.	.
4ccc	.	.	16ff	16G	4cc	8C	4ccc	.	.	8C	8C	.	.	.
.	.	.	16ee	16e	.	.	.	.	.	.	.	.	.	.
.	.	.	16dd	16G	.	8C	.	.	.	8C	8C	.	.	.
.	.	.	16cc	16e	.	.	.	.	.	.	.	.	.	.
=107	=107	=107	=107	=107	=107	=107	=107	=107	=107	=107	=107	=107	=107	=107
2.fff	2.r	2.r	4.dd	16G	2.b	8C	2.bb	2.dd	2b	8C	8C	2.r	2.r	2.r
.	.	.	.	16f	.	.	.	.	.	.	.	.	.	.
.	.	.	.	16G	.	16c	.	.	.	16c	16c	.	.	.
.	.	.	.	16f	.	16B	.	.	.	16B	16B	.	.	.
.	.	.	.	16G	.	8c	.	.	.	8c	8c	.	.	.
.	.	.	.	16f	.	.	.	.	.	.	.	.	.	.
.	.	.	8ee	16G	.	8C	.	.	.	8C	8C	.	.	.
.	.	.	.	16f	.	.	.	.	.	.	.	.	.	.
.	.	.	16gg	16G	.	8C	.	.	4dd	8C	8C	.	.	.
.	.	.	16ff	16f	.	.	.	.	.	.	.	.	.	.
.	.	.	16ee	16G	.	8c	.	.	.	8c	8c	.	.	.
.	.	.	16dd	16f	.	.	.	.	.	.	.	.	.	.
=108	=108	=108	=108	=108	=108	=108	=108	=108	=108	=108	=108	=108	=108	=108
2.eee	2.r	2.r	8gg	16G	4cc	8C	4ccc	4ee	2.g	8C	8C	[2.dd	[2.dd	2.r
.	.	.	.	16e	.	.	.	.	.	.	.	.	.	.
.	.	.	8gg	16G	.	16c	.	.	.	16c	16c	.	.	.
.	.	.	.	16e	.	16B	.	.	.	16B	16B	.	.	.
.	.	.	4gg	16G	4ee	8c	4eee	4gg	.	8c	8c	.	.	.
.	.	.	.	16e	.	.	.	.	.	.	.	.	.	.
.	.	.	.	16G	.	8C	.	.	.	8C	8C	.	.	.
.	.	.	.	16e	.	.	.	.	.	.	.	.	.	.
.	.	.	16ff	16G	4cc	8C	4ccc	16ff	.	8C	8C	.	.	.
.	.	.	16ee	16e	.	.	.	16ee	.	.	.	.	.	.
.	.	.	16dd	16G	.	8C	.	16dd	.	8C	8C	.	.	.
.	.	.	16cc	16e	.	.	.	16cc	.	.	.	.	.	.
=109	=109	=109	=109	=109	=109	=109	=109	=109	=109	=109	=109	=109	=109	=109
2.eee	8dd	2.r	8ccc	16e	2.a	8C	2.aa	2.aa	[2.ee	8C	8C	2.dd_	2.dd_	8dd
.	.	.	.	16a	.	.	.	.	.	.	.	.	.	.
.	8dd	.	8ccc	16e	.	16c	.	.	.	16c	16c	.	.	8dd
.	.	.	.	16a	.	16B	.	.	.	16B	16B	.	.	.
.	4dd	.	4ccc	16e	.	8c	.	.	.	8c	8c	.	.	4dd
.	.	.	.	16a	.	.	.	.	.	.	.	.	.	.
.	.	.	.	16e	.	8C	.	.	.	8C	8C	.	.	.
.	.	.	.	16a	.	.	.	.	.	.	.	.	.	.
.	4r	.	16ddd	16e	.	8C	.	.	.	8C	8C	.	.	4r
.	.	.	16ccc	16a	.	.	.	.	.	.	.	.	.	.
.	.	.	16bb	16e	.	8c	.	.	.	8c	8c	.	.	.
.	.	.	16aa	16a	.	.	.	.	.	.	.	.	.	.
=110	=110	=110	=110	=110	=110	=110	=110	=110	=110	=110	=110	=110	=110	=110
2.eee	8cc	2.r	8gg#	16e	2.d	8BB	2.ddd	2.gg#	2.ee_	8BB	8BB	2.dd_	2.dd_	8dd
.	.	.	.	16dd	.	.	.	.	.	.	.	.	.	.
.	8cc	.	8gg#	16e	.	16B	.	.	.	16B	16B	.	.	8dd
.	.	.	.	16dd	.	16A	.	.	.	16A	16A	.	.	.
.	4cc	.	4gg#	16e	.	8B	.	.	.	8B	8B	.	.	4dd
.	.	.	.	16dd	.	.	.	.	.	.	.	.	.	.
.	.	.	.	16e	.	8BB	.	.	.	8BB	8BB	.	.	.
.	.	.	.	16dd	.	.	.	.	.	.	.	.	.	.
.	4r	.	16aa	16e	.	8BB	.	.	.	8BB	8BB	.	.	4r
.	.	.	16gg#	16dd	.	.	.	.	.	.	.	.	.	.
.	.	.	16ff#	16e	.	8B	.	.	.	8B	8B	.	.	.
.	.	.	16ee	16dd	.	.	.	.	.	.	.	.	.	.
=111	=111	=111	=111	=111	=111	=111	=111	=111	=111	=111	=111	=111	=111	=111
2.ddd	8dd	2.r	8ddd	16e	2.B	8G#	2.bb	2.bb	2.ee]	8G#	8G#	2.dd]	2.dd]	8dd
.	.	.	.	16b	.	.	.	.	.	.	.	.	.	.
.	8dd	.	8ddd	16e	.	16e	.	.	.	16e	16e	.	.	8dd
.	.	.	.	16b	.	16d#	.	.	.	16d#	16d#	.	.	.
.	4dd	.	4ddd	16e	.	8e	.	.	.	8e	8e	.	.	4dd
.	.	.	.	16b	.	.	.	.	.	.	.	.	.	.
.	.	.	.	16e	.	8G#	.	.	.	8G#	8G#	.	.	.
.	.	.	.	16b	.	.	.	.	.	.	.	.	.	.
.	4r	.	16eee	16e	.	8G#	.	.	.	8G#	8G#	.	.	4r
.	.	.	16ddd	16b	.	.	.	.	.	.	.	.	.	.
.	.	.	16ccc	16e	.	8e	.	.	.	8e	8e	.	.	.
.	.	.	16bb	16b	.	.	.	.	.	.	.	.	.	.
=112	=112	=112	=112	=112	=112	=112	=112	=112	=112	=112	=112	=112	=112	=112
2.ccc	8g	2.r	8ccc	16e	4A	8AA	2.aa	2.ee	2.aa	8AA	8AA	[2.dd	2.dd	8dd
.	.	.	.	16cc	.	.	.	.	.	.	.	.	.	.
.	8g	.	8ccc	16e	.	16A	.	.	.	16A	16A	.	.	8dd
.	.	.	.	16cc	.	16G#	.	.	.	16G#	16G#	.	.	.
.	4g	.	4ccc	16e	4c	8A	.	.	.	8A	8A	.	.	4dd
.	.	.	.	16cc	.	.	.	.	.	.	.	.	.	.
.	.	.	.	16e	.	8AA	.	.	.	8AA	8AA	.	.	.
.	.	.	.	16cc	.	.	.	.	.	.	.	.	.	.
.	4r	.	16ddd	16e	4e	8AA	.	.	.	8AA	8AA	.	.	4r
.	.	.	16ccc	16cc	.	.	.	.	.	.	.	.	.	.
.	.	.	16bb	16e	.	8A	.	.	.	8A	8A	.	.	.
.	.	.	16ccc	16cc	.	.	.	.	.	.	.	.	.	.
=113	=113	=113	=113	=113	=113	=113	=113	=113	=113	=113	=113	=113	=113	=113
8aa	8e	2.r	8aa	16f#	4c	8AA	8aa	4ccc	2ff#	8AA	8AA	4dd]	4ee	8ee
.	.	.	.	16cc	.	.	.	.	.	.	.	.	.	.
8aa	8e	.	8aa	16f#	.	16A	8aa	.	.	16A	16A	.	.	8ee
.	.	.	.	16cc	.	16G#	.	.	.	16G#	16G#	.	.	.
4aa	4e	.	4aa	16f#	4a	8A	4aa	4aa	.	8A	8A	2r	2r	4ee
.	.	.	.	16cc	.	.	.	.	.	.	.	.	.	.
.	.	.	.	16f#	.	8AA	.	.	.	8AA	8AA	.	.	.
.	.	.	.	16cc	.	.	.	.	.	.	.	.	.	.
16aa	4r	.	16aa	16e	4g	8AA#	16aa	16aa	4cc#	8AA#	8AA#	.	.	4r
16gg	.	.	16gg	16cc#	.	.	16gg	16gg	.	.	.	.	.	.
16ff#	.	.	16ff#	16e	.	8AA#	16ff#	16ff#	.	8AA#	8AA#	.	.	.
16ee	.	.	16ee	16cc#	.	.	16ee	16ee	.	.	.	.	.	.
=114	=114	=114	=114	=114	=114	=114	=114	=114	=114	=114	=114	=114	=114	=114
4dd#	4e	2.r	8dd#	8b	4f#	[2.BB	4dd#	4dd#	4b	4BB	4BB	2.r	2.r	4e
.	.	.	8bb	8dd#	.	.	.	.	.	.	.	.	.	.
2r	2r	.	8aa#	8cc#	4r	.	2r	2r	2r	2r	2r	.	.	2r
.	.	.	8bb	8dd#	.	.	.	.	.	.	.	.	.	.
.	.	.	8aa	8ff#	8d#	.	.	.	.	.	.	.	.	.
.	.	.	8ff#	8dd#	8f#	.	.	.	.	.	.	.	.	.
=115	=115	=115	=115	=115	=115	=115	=115	=115	=115	=115	=115	=115	=115	=115
2.r	2.r	2.r	8gg	8ee	4e	2.BB]	2.r	2.r	2.r	2.r	2.r	2.r	2.r	2.r
.	.	.	8ee	8g	.	.	.	.	.	.	.	.	.	.
.	.	.	8dd#	8f#	4r	.	.	.	.	.	.	.	.	.
.	.	.	8ee	8g	.	.	.	.	.	.	.	.	.	.
.	.	.	8cc	8e	8g	.	.	.	.	.	.	.	.	.
.	.	.	8a#	8c#	8e	.	.	.	.	.	.	.	.	.
=116	=116	=116	=116	=116	=116	=116	=116	=116	=116	=116	=116	=116	=116	=116
2.r	2.r	2.r	8b	8d#	8f#	8BB	2.r	2.r	2.r	2.r	2.r	2.r	2.r	2.r
.	.	.	8bb	8b	8b	8B	.	.	.	.	.	.	.	.
.	.	.	8aa#	8a#	8a#	8A#	.	.	.	.	.	.	.	.
.	.	.	8bb	8b	8b	8B	.	.	.	.	.	.	.	.
.	.	.	8aa	8a	8a	8A	.	.	.	.	.	.	.	.
.	.	.	8ff#	8f#	8f#	8F#	.	.	.	.	.	.	.	.
=117	=117	=117	=117	=117	=117	=117	=117	=117	=117	=117	=117	=117	=117	=117
8r	[2.c	2.r	8gg	16g	16g	4G	8r	8r	8r	[2.B	[2.G	[2.cc	[2.c	[2.cc
.	.	.	.	16d	16G	.	.	.	.	.	.	.	.	.
8ddd	.	.	8ddd	16B	16G	.	8ddd	8dd	8dd	.	.	.	.	.
.	.	.	.	16d	16G	.	.	.	.	.	.	.	.	.
8ccc#	.	.	8ccc#	16B	16G	2r	8ccc#	8cc#	8cc#	.	.	.	.	.
.	.	.	.	16d	16G	.	.	.	.	.	.	.	.	.
8ddd	.	.	8ddd	16B	16G	.	8ddd	8dd	8dd	.	.	.	.	.
.	.	.	.	16d	16G	.	.	.	.	.	.	.	.	.
8bb	.	.	8bb	16B	16G	.	8bb	8b	8b	.	.	.	.	.
.	.	.	.	16d	16G	.	.	.	.	.	.	.	.	.
8aa	.	.	8aa	16B	16G	.	8aa	8a	8a	.	.	.	.	.
.	.	.	.	16d	16G	.	.	.	.	.	.	.	.	.
=118	=118	=118	=118	=118	=118	=118	=118	=118	=118	=118	=118	=118	=118	=118
4gg	8c]	2.r	4gg	16B	16G	8GG	4gg	4g	4g	2.B]	2.G]	2.cc]	2.c]	8cc]
.	.	.	.	16d	16G	.	.	.	.	.	.	.	.	.
.	8c	.	.	16B	16G	16G	.	.	.	.	.	.	.	8cc
.	.	.	.	16d	16G	16F#	.	.	.	.	.	.	.	.
4dd	8c	.	4dd	16B	16G	8G	4dd	4d	4d	.	.	.	.	8cc
.	.	.	.	16d	16G	.	.	.	.	.	.	.	.	.
.	8c	.	.	16B	16G	8B	.	.	.	.	.	.	.	8cc
.	.	.	.	16d	16G	.	.	.	.	.	.	.	.	.
4b	8c	.	4b	16B	16G	8d	4b	4b	4b	.	.	.	.	8cc
.	.	.	.	16d	16G	.	.	.	.	.	.	.	.	.
.	8c	.	.	16B	16G	8B	.	.	.	.	.	.	.	8cc
.	.	.	.	16d	16G	.	.	.	.	.	.	.	.	.
=119	=119	=119	=119	=119	=119	=119	=119	=119	=119	=119	=119	=119	=119	=119
8g	[2.c	2.r	8g	16B	16G	4G	8g	8g	8g	[2.B	[2.G	[2.cc	[2.c	[2.cc
.	.	.	.	16d	16G	.	.	.	.	.	.	.	.	.
8ddd	.	.	8ddd	16B	16G	.	8ddd	8dd	8dd	.	.	.	.	.
.	.	.	.	16d	16G	.	.	.	.	.	.	.	.	.
8ccc#	.	.	8ccc#	16B	16G	2r	8ccc#	8cc#	8cc#	.	.	.	.	.
.	.	.	.	16d	16G	.	.	.	.	.	.	.	.	.
8ddd	.	.	8ddd	16B	16G	.	8ddd	8dd	8dd	.	.	.	.	.
.	.	.	.	16d	16G	.	.	.	.	.	.	.	.	.
8bb	.	.	8bb	16B	16G	.	8bb	8b	8b	.	.	.	.	.
.	.	.	.	16d	16G	.	.	.	.	.	.	.	.	.
8aa	.	.	8aa	16B	16G	.	8aa	8a	8a	.	.	.	.	.
.	.	.	.	16d	16G	.	.	.	.	.	.	.	.	.
=120	=120	=120	=120	=120	=120	=120	=120	=120	=120	=120	=120	=120	=120	=120
4gg	8c]	2.r	4gg	16B	16G	8GG	4gg	4g	4g	2.B]	2.G]	2.cc]	2.c]	8cc]
.	.	.	.	16d	16G	.	.	.	.	.	.	.	.	.
.	8c	.	.	16B	16G	16G	.	.	.	.	.	.	.	8cc
.	.	.	.	16d	16G	16F#	.	.	.	.	.	.	.	.
4dd	8c	.	4dd	16B	16G	8G	4dd	4d	4d	.	.	.	.	8cc
.	.	.	.	16d	16G	.	.	.	.	.	.	.	.	.
.	8c	.	.	16B	16G	8B	.	.	.	.	.	.	.	8cc
.	.	.	.	16d	16G	.	.	.	.	.	.	.	.	.
4b	8c	.	4b	16B	16G	8d	4b	4b	4b	.	.	.	.	8cc
.	.	.	.	16d	16G	.	.	.	.	.	.	.	.	.
.	8c	.	.	16B	16G	8B	.	.	.	.	.	.	.	8cc
.	.	.	.	16d	16G	.	.	.	.	.	.	.	.	.
=121	=121	=121	=121	=121	=121	=121	=121	=121	=121	=121	=121	=121	=121	=121
8g	[2.c	2.r	8g	16B	16G	4G	8g	8g	8g	[2.B	[2.G	[2.cc	[2.c	[2.cc
.	.	.	.	16d	16G	.	.	.	.	.	.	.	.	.
8ddd	.	.	8ddd	16B	16G	.	8ddd	8dd	8dd	.	.	.	.	.
.	.	.	.	16d	16G	.	.	.	.	.	.	.	.	.
8ccc#	.	.	8ccc#	16B	16G	2r	8ccc#	8cc#	8cc#	.	.	.	.	.
.	.	.	.	16d	16G	.	.	.	.	.	.	.	.	.
8ddd	.	.	8ddd	16B	16G	.	8ddd	8dd	8dd	.	.	.	.	.
.	.	.	.	16d	16G	.	.	.	.	.	.	.	.	.
8bb	.	.	8bb	16B	16G	.	8bb	8b	8b	.	.	.	.	.
.	.	.	.	16d	16G	.	.	.	.	.	.	.	.	.
8aa	.	.	8aa	16B	16G	.	8aa	8a	8a	.	.	.	.	.
.	.	.	.	16d	16G	.	.	.	.	.	.	.	.	.
=122	=122	=122	=122	=122	=122	=122	=122	=122	=122	=122	=122	=122	=122	=122
4gg	8c]	2.r	4gg	16B	16G	8GG	4gg	4g	4g	2.B]	2.G]	2.cc]	2.c]	8cc]
.	.	.	.	16d	16G	.	.	.	.	.	.	.	.	.
.	8c	.	.	16B	16G	8G	.	.	.	.	.	.	.	8cc
.	.	.	.	16d	16G	.	.	.	.	.	.	.	.	.
4ff#	8c	.	4ff#	16B	16G	8G	4ff#	4b	4b	.	.	.	.	8cc
.	.	.	.	16d	16G	.	.	.	.	.	.	.	.	.
.	8c	.	.	16B	16G	8G	.	.	.	.	.	.	.	8cc
.	.	.	.	16d	16G	.	.	.	.	.	.	.	.	.
4ee#	8c	.	4ee#	16B	16d	8G	4ee#	4dd	4b	.	.	.	.	8cc
.	.	.	.	16d	16d	.	.	.	.	.	.	.	.	.
.	8c	.	.	16c#	16d	8G	.	.	.	.	.	.	.	8cc
.	.	.	.	16B	16d	.	.	.	.	.	.	.	.	.
=123	=123	=123	=123	=123	=123	=123	=123	=123	=123	=123	=123	=123	=123	=123
4ff#	8e	2.r	4.ff#	4B	4d	8F#	4ff#	4dd	4b	4d	4B	8ee	8e	8ee
.	16e	.	.	.	.	16F#	.	.	.	.	.	16ee	16e	16ee
.	16e	.	.	.	.	16F#	.	.	.	.	.	16ee	16e	16ee
4fff#	4e	.	.	8A#	8c#	4F#	4ff#	4cc#	4a#	4c#	4A#	4ee	4e	4ee
.	.	.	8a#	8f#	8f#	.	.	.	.	.	.	.	.	.
4fff#	4r	.	8b	8g#	8e	4r	4ff#	4r	4r	4r	4r	4r	4r	4r
.	.	.	8cc#	8a#	8c#	.	.	.	.	.	.	.	.	.
=124	=124	=124	=124	=124	=124	=124	=124	=124	=124	=124	=124	=124	=124	=124
[2.fff#	8e	2.r	8dd	8b	4B	8F#	[2.ff#	2.r	2.r	2.r	2.r	8ee	8e	8e
.	16e	.	8ff#	8dd	.	16F#	.	.	.	.	.	16ee	16e	16e
.	16e	.	.	.	.	16F#	.	.	.	.	.	16ee	16e	16e
.	4e	.	8ee	8cc#	2r	4F#	.	.	.	.	.	4ee	4e	4e
.	.	.	8dd	8b	.	.	.	.	.	.	.	.	.	.
.	4r	.	8cc#	8a#	.	4r	.	.	.	.	.	4r	4r	4r
.	.	.	8dd	8b	.	.	.	.	.	.	.	.	.	.
=125	=125	=125	=125	=125	=125	=125	=125	=125	=125	=125	=125	=125	=125	=125
2.fff#_	8e	2.r	8ee	8cc#	4F#	8F#	2.ff#_	2.r	2.r	2.r	2.r	8ee	8e	8e
.	16e	.	8gg	8ee	.	16F#	.	.	.	.	.	16ee	16e	16e
.	16e	.	.	.	.	16F#	.	.	.	.	.	16ee	16e	16e
.	4e	.	8ff#	8dd	2r	4F#	.	.	.	.	.	4ee	4e	4e
.	.	.	8ee	8cc#	.	.	.	.	.	.	.	.	.	.
.	4r	.	8dd	8b	.	4r	.	.	.	.	.	4r	4r	4r
.	.	.	8cc#	8a#	.	.	.	.	.	.	.	.	.	.
=126	=126	=126	=126	=126	=126	=126	=126	=126	=126	=126	=126	=126	=126	=126
2.fff#_	8e	2.r	8dd	8b	4F#	8F#	2.ff#_	2.r	2.r	2.r	2.r	8ee	8e	8e
.	16e	.	8ff#	8dd	.	16F#	.	.	.	.	.	16ee	16e	16e
.	16e	.	.	.	.	16F#	.	.	.	.	.	16ee	16e	16e
.	4e	.	8bb	8ff#	8r	4F#	.	.	.	.	.	4ee	4e	4e
.	.	.	8ff#	8ff#	8f#	.	.	.	.	.	.	.	.	.
.	4r	.	8dd	8dd	8d	4r	.	.	.	.	.	4r	4r	4r
.	.	.	8b	8b	8B	.	.	.	.	.	.	.	.	.
=127	=127	=127	=127	=127	=127	=127	=127	=127	=127	=127	=127	=127	=127	=127
2.fff#_	8e	2.r	8ff#	8a#	8f#	8F#	2.ff#_	2cc#	2a#	2c#	2A#	8ee	8e	8e
.	16e	.	16ff#	16a#	16f#	16F#	.	.	.	.	.	16ee	16e	16e
.	16e	.	16ff#	16a#	16f#	16F#	.	.	.	.	.	16ee	16e	16e
.	8e	.	8ff#	8a#	8f#	8F#	.	.	.	.	.	8ee	8e	8e
.	8e	.	8ff#	8ff#	8f#	8F#	.	.	.	.	.	8ee	8e	8e
.	8e	.	8dd	8dd	8d	8D	.	4dd	4b	4d	4B	8ee	8e	8e
.	8e	.	8b	8b	8B	8BB	.	.	.	.	.	8ee	8e	8e
=128	=128	=128	=128	=128	=128	=128	=128	=128	=128	=128	=128	=128	=128	=128
2.fff#_	8e	2.r	8ff#	8a#	8f#	8F#	2.ff#_	2cc#	2a#	2c#	2A#	8ee	8e	8e
.	16e	.	16ff#	16a#	16f#	16F#	.	.	.	.	.	16ee	16e	16e
.	16e	.	16ff#	16a#	16f#	16F#	.	.	.	.	.	16ee	16e	16e
.	8e	.	8ff#	8a#	8f#	8F#	.	.	.	.	.	8ee	8e	8e
.	8e	.	8ff#	8ff#	8f#	8F#	.	.	.	.	.	8ee	8e	8e
.	8e	.	8dd	8dd	8d	8D	.	4dd	4b	4d	4B	8ee	8e	8e
.	8e	.	8b	8b	8B	8BB	.	.	.	.	.	8ee	8e	8e
=129	=129	=129	=129	=129	=129	=129	=129	=129	=129	=129	=129	=129	=129	=129
4fff#]	4e	2.r	4ff#	4ff#	4F#	4F#	4ff#]	4cc#	4a#	4c#	4A#	4ee	4e	4e
2r	2r	.	2r	2r	2r	2r	2r	2r	2r	2r	2r	2r	2r	2r
=130	=130	=130	=130	=130	=130	=130	=130	=130	=130	=130	=130	=130	=130	=130
2.r	2.r	2.r	2.r	2.r	2.r	2.r	2.r	2.r	2.r	2.r	2.r	2.r	2.r	2.r
=131	=131	=131	=131	=131	=131	=131	=131	=131	=131	=131	=131	=131	=131	=131
2.r	2.r	2.r	2.r	2.r	2.r	2.r	2.r	2.r	2.r	2.r	2.r	2.r	2.r	2.r
=132	=132	=132	=132	=132	=132	=132	=132	=132	=132	=132	=132	=132	=132	=132
2.r	2.r	2.r	4.r	8b	8g	4GG	2.r	2.r	2.r	8G	2.r	2.r	2.r	2.r
.	.	.	.	8dd	8b	.	.	.	.	8B	.	.	.	.
.	.	.	.	8cc	8a	2r	.	.	.	8A	.	.	.	.
.	.	.	8dd	8b	8g	.	.	.	.	8G	.	.	.	.
.	.	.	8dd	8a	8f#	.	.	.	.	8F#	.	.	.	.
.	.	.	8dd	8g	8e	.	.	.	.	8E	.	.	.	.
=133	=133	=133	=133	=133	=133	=133	=133	=133	=133	=133	=133	=133	=133	=133
8r	2.r	2.r	[2dd	8f#	8d	4D	2.r	2.r	2.r	8D	2.r	2.r	2.r	2.r
8ddd	.	.	.	8e	8c	.	.	.	.	8C	.	.	.	.
8ddd	.	.	.	8d	8B	2r	.	.	.	8BB	.	.	.	.
8ddd	.	.	.	8c	8A	.	.	.	.	8AA	.	.	.	.
16ddd	.	.	8.dd]	8B	8G	.	.	.	.	8GG	.	.	.	.
16ccc	.	.	.	.	.	.	.	.	.	.	.	.	.	.
16bb	.	.	.	8c	8A	.	.	.	.	8A	.	.	.	.
16aa	.	.	32ee	.	.	.	.	.	.	.	.	.	.	.
.	.	.	32ff#	.	.	.	.	.	.	.	.	.	.	.
=134	=134	=134	=134	=134	=134	=134	=134	=134	=134	=134	=134	=134	=134	=134
8gg	2.r	2.r	8gg	2d	8B	4G	2.r	2.r	2.r	8B	2.r	2.r	2.r	2.r
8ff#	.	.	8ff#	.	8A	.	.	.	.	8A	.	.	.	.
8aa	.	.	8aa	.	8c	2r	.	.	.	8c	.	.	.	.
8gg	.	.	8gg	.	8B	.	.	.	.	8B	.	.	.	.
8ccc	.	.	8ccc	8a	8F#	.	.	.	.	8F#	.	.	.	.
8bb	.	.	8bb	8g	8G	.	.	.	.	8G	.	.	.	.
=135	=135	=135	=135	=135	=135	=135	=135	=135	=135	=135	=135	=135	=135	=135
8aa	2.r	2.r	8aa	8f#	8D	4D	2.r	2.r	2.r	8D	2.r	2.r	2.r	2.r
8aa	.	.	8aa	8f#	8D	.	.	.	.	8D	.	.	.	.
8aa	.	.	8aa	8f#	8D	2r	.	.	.	8D	.	.	.	.
4.r	.	.	4.r	16f#	16d	.	.	.	.	16D	.	.	.	.
.	.	.	.	16g	16e	.	.	.	.	16E	.	.	.	.
.	.	.	.	8a	8f#	.	.	.	.	8F#	.	.	.	.
.	.	.	.	8b	8g	.	.	.	.	8G	.	.	.	.
=136	=136	=136	=136	=136	=136	=136	=136	=136	=136	=136	=136	=136	=136	=136
2.r	2.r	2.r	4.r	8cc	8a	4D	2.r	2.r	2.r	8A	2.r	2.r	2.r	2.r
.	.	.	.	8dd	8b	.	.	.	.	8B	.	.	.	.
.	.	.	.	8ee	8cc	2r	.	.	.	8c	.	.	.	.
.	.	.	8dd	8dd	8b	.	.	.	.	8B	.	.	.	.
.	.	.	8dd	8cc	8a	.	.	.	.	8A	.	.	.	.
.	.	.	8dd	8b	8g	.	.	.	.	8G	.	.	.	.
=137	=137	=137	=137	=137	=137	=137	=137	=137	=137	=137	=137	=137	=137	=137
8r	2.r	2.r	[2dd	8a	8f#	4D	2.r	2.r	2.r	8F#	2.r	2.r	2.r	2.r
8ddd	.	.	.	8g	8e	.	.	.	.	8E	.	.	.	.
8ddd	.	.	.	8f#	8d	2r	.	.	.	8D	.	.	.	.
8ddd	.	.	.	8e	8c	.	.	.	.	8C	.	.	.	.
16ddd	.	.	8.dd]	8d	8B	.	.	.	.	8BB	.	.	.	.
16ccc	.	.	.	.	.	.	.	.	.	.	.	.	.	.
16bb	.	.	.	8c	8A	.	.	.	.	8AA	.	.	.	.
16aa	.	.	32ee	.	.	.	.	.	.	.	.	.	.	.
.	.	.	32ff#	.	.	.	.	.	.	.	.	.	.	.
=138	=138	=138	=138	=138	=138	=138	=138	=138	=138	=138	=138	=138	=138	=138
8gg	2.r	2.r	8gg	8B	8B	8G	2.r	2.r	2.r	8GG	2.r	2.r	2.r	2.r
8bb	.	.	8bb	8r	8r	8r	.	.	.	8r	.	.	.	.
8aa	.	.	8aa	8e	8c	8C	.	.	.	8C	.	.	.	.
8ccc	.	.	8ccc	8r	8r	8r	.	.	.	8r	.	.	.	.
8ff#	.	.	8ff#	8cc	8d	8D	.	.	.	8D	.	.	.	.
8aa	.	.	8aa	8r	8r	8r	.	.	.	8r	.	.	.	.
=139	=139	=139	=139	=139	=139	=139	=139	=139	=139	=139	=139	=139	=139	=139
8bb	2.r	2.r	16bb	16b	8g	8G	8bb	4bb	4b	8G	8G	2.r	2.r	2.r
.	.	.	16bb	16b	.	.	.	.	.	.	.	.	.	.
8ddd	.	.	16ddd	16dd	8b	8B	8ddd	.	.	8B	8B	.	.	.
.	.	.	16ddd	16dd	.	.	.	.	.	.	.	.	.	.
8ccc	.	.	16ccc	16cc	8cc	8c	8ccc	4ccc	4cc	8c	8c	.	.	.
.	.	.	16ccc	16cc	.	.	.	.	.	.	.	.	.	.
8eee	.	.	16eee	16ee	8ee	8e	8eee	.	.	8e	8e	.	.	.
.	.	.	16eee	16ee	.	.	.	.	.	.	.	.	.	.
8aa	.	.	16aa	16a	8a	8A	8aa	4aa	4a	8A	8A	.	.	.
.	.	.	16aa	16a	.	.	.	.	.	.	.	.	.	.
8ccc	.	.	16ccc	16cc	8cc	8c	8ccc	.	.	8c	8c	.	.	.
.	.	.	16ccc	16cc	.	.	.	.	.	.	.	.	.	.
=140	=140	=140	=140	=140	=140	=140	=140	=140	=140	=140	=140	=140	=140	=140
8ff#	2.r	2.r	16ff#	16f#	8f#	8F#	8ff#	4ff#	4f#	8F#	8F#	2.r	2.r	2.r
.	.	.	16ff#	16f#	.	.	.	.	.	.	.	.	.	.
8aa	.	.	16aa	16a	8a	8A	8aa	.	.	8A	8A	.	.	.
.	.	.	16aa	16a	.	.	.	.	.	.	.	.	.	.
8dd#	.	.	16dd#	16d#	8d#	8D#	8dd#	4dd#	4dd#	8D#	8D#	.	.	.
.	.	.	16dd#	16d#	.	.	.	.	.	.	.	.	.	.
8ff#	.	.	16ff#	16f#	8f#	8F#	8ff#	.	.	8F#	8F#	.	.	.
.	.	.	16ff#	16f#	.	.	.	.	.	.	.	.	.	.
8bb	.	.	16bb	16b	8B	8BB	8bb	4bb	4b	8BB	8BB	.	.	.
.	.	.	16bb	16b	.	.	.	.	.	.	.	.	.	.
8aa	.	.	16aa	16b	8d#	8D#	8aa	.	.	8D#	8D#	.	.	.
.	.	.	16aa	16b	.	.	.	.	.	.	.	.	.	.
=141	=141	=141	=141	=141	=141	=141	=141	=141	=141	=141	=141	=141	=141	=141
16gg	2.r	2.r	16gg	8b	4e	4E	16gg	4gg	4ee	4E	4E	2.r	2.r	2.r
16aa	.	.	16aa	.	.	.	16aa	.	.	.	.	.	.	.
16bb	.	.	16bb	16g	.	.	16bb	.	.	.	.	.	.	.
16aa	.	.	16aa	16a	.	.	16aa	.	.	.	.	.	.	.
16gg	.	.	16gg	16b	4r	4r	16gg	2r	2r	4r	4r	.	.	.
16aa	.	.	16aa	16cc	.	.	16aa	.	.	.	.	.	.	.
16gg	.	.	16gg	16b	.	.	16gg	.	.	.	.	.	.	.
16ff#	.	.	16ff#	16a	.	.	16ff#	.	.	.	.	.	.	.
16ee	.	.	16ee	16g	4e	4G	16ee	.	.	4G	4G	.	.	.
16ff#	.	.	16ff#	16a	.	.	16ff#	.	.	.	.	.	.	.
16ee	.	.	16ee	16g	.	.	16ee	.	.	.	.	.	.	.
16dd	.	.	16dd	16f#	.	.	16dd	.	.	.	.	.	.	.
=142	=142	=142	=142	=142	=142	=142	=142	=142	=142	=142	=142	=142	=142	=142
16cc#	2.g	4GG	16cc#	16e	4e	4A	16cc#	2ccc#	4cc#	4A	4A	2.dd	2.g	2.dd
16dd	.	.	16dd	16d	.	.	16dd	.	.	.	.	.	.	.
16ee	.	.	16ee	16c#	.	.	16ee	.	.	.	.	.	.	.
16dd	.	.	16dd	16d	.	.	16dd	.	.	.	.	.	.	.
16cc#	.	4r	16cc#	16e	4r	4r	16cc#	.	4aa	4r	4r	.	.	.
16dd	.	.	16dd	16f#	.	.	16dd	.	.	.	.	.	.	.
16cc#	.	.	16cc#	16e	.	.	16cc#	.	.	.	.	.	.	.
16b	.	.	16b	16d	.	.	16b	.	.	.	.	.	.	.
16a	.	4GG	16a	8c#	4a	4C#	16a	4eee	4gg	4C#	4C#	.	.	.
16b	.	.	16b	.	.	.	16b	.	.	.	.	.	.	.
16a	.	.	16a	8e	.	.	16a	.	.	.	.	.	.	.
16g	.	.	16g	.	.	.	16g	.	.	.	.	.	.	.
=143	=143	=143	=143	=143	=143	=143	=143	=143	=143	=143	=143	=143	=143	=143
16f#	4cc	4C	16f#	16f#	4a	4D	16f#	4ddd	4ff#	4D	4D	4ee	4cc	4ee
16a	.	.	16a	16g	.	.	16a	.	.	.	.	.	.	.
16dd	.	.	16dd	16a	.	.	16dd	.	.	.	.	.	.	.
16ee	.	.	16ee	16g	.	.	16ee	.	.	.	.	.	.	.
8ff#	2r	2r	8ff#	8f#	16dd	16d	8ff#	2r	2r	16d	16d	2r	2r	2r
.	.	.	.	.	16ee	16e	.	.	.	16e	16e	.	.	.
8ee	.	.	8ee	8e	16dd	16d	8ee	.	.	16d	16d	.	.	.
.	.	.	.	.	16cc#	16c#	.	.	.	16c#	16c#	.	.	.
8gg	.	.	8gg	8g	16b	16B	8gg	.	.	16B	16B	.	.	.
.	.	.	.	.	16cc#	16c#	.	.	.	16c#	16c#	.	.	.
8ff#	.	.	8ee	8f#	16b	16B	8ff#	.	.	16B	16B	.	.	.
.	.	.	.	.	16a	16A	.	.	.	16A	16A	.	.	.
=144	=144	=144	=144	=144	=144	=144	=144	=144	=144	=144	=144	=144	=144	=144
8bb	2.r	2.r	16bb	16b	16g	16G	8bb	2.r	2.r	16G	16G	2.r	2.r	2.r
.	.	.	16bb	16b	16a	16A	.	.	.	16A	16A	.	.	.
8aa	.	.	16aa	16a	16g	16G	8aa	.	.	16G	16G	.	.	.
.	.	.	16aa	16a	16f#	16F#	.	.	.	16F#	16F#	.	.	.
8ddd	.	.	16ddd	16dd	16e	16E	8ddd	.	.	16E	16E	.	.	.
.	.	.	16ddd	16dd	16f#	16F#	.	.	.	16F#	16F#	.	.	.
8ccc#	.	.	16ccc#	16cc#	16e	16E	8ccc#	.	.	16E	16E	.	.	.
.	.	.	16ccc#	16cc#	16d	16D	.	.	.	16D	16D	.	.	.
8eee	.	.	16eee	16ee	16c#	16C#	8eee	.	.	16C#	16C#	.	.	.
.	.	.	16eee	16ee	16d	16D	.	.	.	16D	16D	.	.	.
8ddd	.	.	16ddd	16dd	16c#	16C#	8ddd	.	.	16C#	16C#	.	.	.
.	.	.	16ddd	16dd	16B	16BB	.	.	.	16BB	16BB	.	.	.
=145	=145	=145	=145	=145	=145	=145	=145	=145	=145	=145	=145	=145	=145	=145
16ccc#	4g	4GG	16ccc#	8cc#	4A	4AA	16ccc#	2.r	2.r	4AA	4AA	4dd	4g	4dd
16ddd	.	.	16ddd	.	.	.	16ddd	.	.	.	.	.	.	.
16ccc#	.	.	16ccc#	8r	.	.	16ccc#	.	.	.	.	.	.	.
16bb	.	.	16bb	.	.	.	16bb	.	.	.	.	.	.	.
16aa	2r	2r	16aa	8f#	2r	2r	16aa	.	.	2r	2r	2r	2r	2r
16bb	.	.	16bb	.	.	.	16bb	.	.	.	.	.	.	.
16aa	.	.	16aa	8e	.	.	16aa	.	.	.	.	.	.	.
16gg	.	.	16gg	.	.	.	16gg	.	.	.	.	.	.	.
16ff#	.	.	16ff#	8a	.	.	16ff#	.	.	.	.	.	.	.
16gg	.	.	16gg	.	.	.	16gg	.	.	.	.	.	.	.
16ff#	.	.	16ff#	8g	.	.	16ff#	.	.	.	.	.	.	.
16ee	.	.	16ee	.	.	.	16ee	.	.	.	.	.	.	.
=146	=146	=146	=146	=146	=146	=146	=146	=146	=146	=146	=146	=146	=146	=146
16dd	4cc	4C	16dd	4f#	8B	2r	16dd	4r	4r	8B	8B	4ee	4cc	4ee
16ee	.	.	16ee	.	.	.	16ee	.	.	.	.	.	.	.
16dd	.	.	16dd	.	8A	.	16dd	.	.	8A	8A	.	.	.
16cc#	.	.	16cc#	.	.	.	16cc#	.	.	.	.	.	.	.
16b	4r	4r	16b	4r	8d	.	16b	4ff#	4ff#	8d	8d	4r	4r	4r
16cc#	.	.	16cc#	.	.	.	16cc#	.	.	.	.	.	.	.
16b	.	.	16b	.	8c#	.	16b	.	.	8c#	8c#	.	.	.
16a	.	.	16a	.	.	.	16a	.	.	.	.	.	.	.
16g#	4cc	4C	16g#	4d	4B	4E	16g#	4gg#	4gg#	8B	8B	4dd	4cc	4dd
16a	.	.	16a	.	.	.	16a	.	.	.	.	.	.	.
16b	.	.	16b	.	.	.	16b	.	.	8E	8E	.	.	.
16g#	.	.	16g#	.	.	.	16g#	.	.	.	.	.	.	.
=147	=147	=147	=147	=147	=147	=147	=147	=147	=147	=147	=147	=147	=147	=147
4a	4g	4GG	4a	4c#	8A	8AA	4a	4aa	4aa	8A	8AA	4dd	4g	4gg
.	.	.	.	.	8G#	8GG#	.	.	.	8G#	8GG#	.	.	.
2r	2r	2r	4r	2r	8B	8BB	2r	2r	2r	8B	8BB	2r	2r	2r
.	.	.	.	.	8A	8AA	.	.	.	8A	8AA	.	.	.
.	.	.	8a	.	4r	4r	.	.	.	4r	4r	.	.	.
.	.	.	8g#	.	.	.	.	.	.	.	.	.	.	.
=148	=148	=148	=148	=148	=148	=148	=148	=148	=148	=148	=148	=148	=148	=148
2.r	2.r	2.r	8b	4r	4r	4r	2.r	2.r	2.r	2.r	2.r	2.r	2.r	2.r
.	.	.	8a	.	.	.	.	.	.	.	.	.	.	.
.	.	.	4r	4c# 4e	4A	4A	.	.	.	.	.	.	.	.
.	.	.	8cc#	4r	4r	4r	.	.	.	.	.	.	.	.
.	.	.	8b	.	.	.	.	.	.	.	.	.	.	.
=149	=149	=149	=149	=149	=149	=149	=149	=149	=149	=149	=149	=149	=149	=149
2.r	2.r	2.r	8dd	4r	4r	4r	2.r	2.r	2.r	2.r	2.r	2.r	2.r	2.r
.	.	.	8cc#	.	.	.	.	.	.	.	.	.	.	.
.	.	.	4r	4e 4c#	4A	4A	.	.	.	.	.	.	.	.
.	.	.	8ee	4r	4r	4r	.	.	.	.	.	.	.	.
.	.	.	8dd	.	.	.	.	.	.	.	.	.	.	.
=150	=150	=150	=150	=150	=150	=150	=150	=150	=150	=150	=150	=150	=150	=150
2.r	2.r	2.r	8ff#	2.r	2.r	2.r	2.r	2.r	2.r	2.r	2.r	2.r	2.r	2.r
.	.	.	8ee	.	.	.	.	.	.	.	.	.	.	.
.	.	.	8gg	.	.	.	.	.	.	.	.	.	.	.
.	.	.	8ff#	.	.	.	.	.	.	.	.	.	.	.
.	.	.	8aa	.	.	.	.	.	.	.	.	.	.	.
.	.	.	8gg	.	.	.	.	.	.	.	.	.	.	.
=151	=151	=151	=151	=151	=151	=151	=151	=151	=151	=151	=151	=151	=151	=151
2.r	2.r	2.r	4bb	2.r	2.r	2.r	2.r	2.r	2.r	2.r	2.r	2.r	2.r	2.r
.	.	.	8r	.	.	.	.	.	.	.	.	.	.	.
.	.	.	8aa	.	.	.	.	.	.	.	.	.	.	.
.	.	.	8gg	.	.	.	.	.	.	.	.	.	.	.
.	.	.	8ff#	.	.	.	.	.	.	.	.	.	.	.
=152	=152	=152	=152	=152	=152	=152	=152	=152	=152	=152	=152	=152	=152	=152
2.r	2.r	2.r	8ee	2.r	2.r	2.r	2.r	2.r	2.r	2.r	2.r	2.r	2.r	2.r
.	.	.	8dd	.	.	.	.	.	.	.	.	.	.	.
.	.	.	8cc#	.	.	.	.	.	.	.	.	.	.	.
.	.	.	8b	.	.	.	.	.	.	.	.	.	.	.
.	.	.	8a	.	.	.	.	.	.	.	.	.	.	.
.	.	.	8g#	.	.	.	.	.	.	.	.	.	.	.
=153	=153	=153	=153	=153	=153	=153	=153	=153	=153	=153	=153	=153	=153	=153
2.r	2.r	2.r	4g	2.r	2.r	2.r	2.r	2.r	2.r	2.r	2.r	2.r	2.r	2.r
.	.	.	2r	.	.	.	.	.	.	.	.	.	.	.
=154	=154	=154	=154	=154	=154	=154	=154	=154	=154	=154	=154	=154	=154	=154
2.r	2.r	2.r	4.r	8f#	8d	4D	2.r	4.r	2.r	8d	2.r	2.r	2.r	2.r
.	.	.	.	8a	8f#	.	.	.	.	8f#	.	.	.	.
.	.	.	.	8g	8e	2r	.	.	.	8e	.	.	.	.
.	.	.	8a	8f#	8d	.	.	8a	.	8d	.	.	.	.
.	.	.	8a	8e	8c#	.	.	8a	.	8c#	.	.	.	.
.	.	.	8a	8d	8B	.	.	8a	.	8B	.	.	.	.
=155	=155	=155	=155	=155	=155	=155	=155	=155	=155	=155	=155	=155	=155	=155
8r	2.r	2.r	[2a	8c#	8A	4A	2.r	[2a	2.r	8A	2.r	2.r	2.r	2.r
8aa	.	.	.	8B	8G	.	.	.	.	8G	.	.	.	.
8aa	.	.	.	8A	8F#	2r	.	.	.	8F#	.	.	.	.
8aa	.	.	.	8g	8E	.	.	.	.	8E	.	.	.	.
16aa	.	.	8.a]	8f#	8D	.	.	8.a]	.	8D	.	.	.	.
16gg	.	.	.	.	.	.	.	.	.	.	.	.	.	.
16ff#	.	.	.	8g	8e	.	.	.	.	8e	.	.	.	.
16ee	.	.	32b	.	.	.	.	32b	.	.	.	.	.	.
.	.	.	32cc#	.	.	.	.	32cc#	.	.	.	.	.	.
=156	=156	=156	=156	=156	=156	=156	=156	=156	=156	=156	=156	=156	=156	=156
4dd	2.r	2.r	8dd	2a	8f#	4d	2.r	8dd	2.r	8f#	2.r	2.r	2.r	2.r
.	.	.	8cc#	.	8e	.	.	8cc#	.	8e	.	.	.	.
2r	.	.	8ee	.	8g	2r	.	8ee	.	8g	.	.	.	.
.	.	.	8dd	.	8f#	.	.	8dd	.	8f#	.	.	.	.
.	.	.	8gg	8ee	8c#	.	.	8gg	.	8c#	.	.	.	.
.	.	.	8ff#	8dd	8d	.	.	8ff#	.	8d	.	.	.	.
=157	=157	=157	=157	=157	=157	=157	=157	=157	=157	=157	=157	=157	=157	=157
2.r	2.r	2.r	8ee	8cc#	8A	4A	2.r	8ee	2.r	8A	2.r	4.r	4.r	2.r
.	.	.	8ee	8cc#	8A	.	.	8ee	.	8A	.	.	.	.
.	.	.	8ee	8cc#	8A	2r	.	8ee	.	8A	.	.	.	.
.	.	.	4.r	16c#	16A	.	.	4.r	.	16B	.	8g	8G	.
.	.	.	.	16d	16B	.	.	.	.	16c#	.	.	.	.
.	.	.	.	8e	8c#	.	.	.	.	8c#	.	8g	8G	.
.	.	.	.	8f#	8d	.	.	.	.	8d	.	8g	8G	.
=158	=158	=158	=158	=158	=158	=158	=158	=158	=158	=158	=158	=158	=158	=158
2.r	2.r	2.r	4.r	8g	8e	4A	2.r	4.r	2.r	8e	2.r	4g	4G	2.r
.	.	.	.	8a	8f#	.	.	.	.	8f#	.	.	.	.
.	.	.	.	8b	8g	2r	.	.	.	8g	.	2r	2r	.
.	.	.	8a	8a	8f#	.	.	8a	.	8f#	.	.	.	.
.	.	.	8a	8g	8e	.	.	8a	.	8e	.	.	.	.
.	.	.	8a	8f#	8d	.	.	8a	.	8d	.	.	.	.
=159	=159	=159	=159	=159	=159	=159	=159	=159	=159	=159	=159	=159	=159	=159
8r	2.r	2.r	[2a	8e	8c#	4A	2.r	[2a	2.r	8c#	2.r	2.r	2.r	2.r
8aa	.	.	.	8d	8B	.	.	.	.	8B	.	.	.	.
8aa	.	.	.	8c#	8A	2r	.	.	.	8A	.	.	.	.
8aa	.	.	.	8B	8G	.	.	.	.	8G	.	.	.	.
16aa	.	.	8.a]	8A	8F#	.	.	8.a]	.	8F#	.	.	.	.
16gg	.	.	.	.	.	.	.	.	.	.	.	.	.	.
16ff#	.	.	.	8g	8E	.	.	.	.	8E	.	.	.	.
16ee	.	.	32b	.	.	.	.	32b	.	.	.	.	.	.
.	.	.	32cc#	.	.	.	.	32cc#	.	.	.	.	.	.
=160	=160	=160	=160	=160	=160	=160	=160	=160	=160	=160	=160	=160	=160	=160
4dd	2.r	2.r	8dd	8a	8D	8D	2.r	8dd	2.r	8D	2.r	2.r	2.r	2.r
.	.	.	8ff#	8r	8r	8r	.	8ff#	.	8r	.	.	.	.
2r	.	.	8ee	8b	8G	8GG	.	8ee	.	8G	.	.	.	.
.	.	.	8gg	8r	8r	8r	.	8gg	.	8r	.	.	.	.
.	.	.	8cc#	8g	8A	8AA	.	8cc#	.	8A	.	.	.	.
.	.	.	8ee	8r	8r	8r	.	8ee	.	8r	.	.	.	.
=161	=161	=161	=161	=161	=161	=161	=161	=161	=161	=161	=161	=161	=161	=161
4.r	4c	4C	4dd	16f#	4d	8D	4.r	4dd	8dd	8D	8D	2.r	2.r	4c
.	.	.	.	16f#	.	.	.	.	.	.	.	.	.	.
.	.	.	.	16aa	.	8f#	.	.	8aa	8f#	8f#	.	.	.
.	.	.	.	16aa	.	.	.	.	.	.	.	.	.	.
.	8r	2r	8r	16gg	8r	8e	.	8r	8gg	8e	8e	.	.	8r
.	.	.	.	16gg	.	.	.	.	.	.	.	.	.	.
8aa	8g	.	8aa	16ff#	8a	8d	8aa	8a	8ff#	8d	8d	.	.	8g
.	.	.	.	16ff#	.	.	.	.	.	.	.	.	.	.
8aa	8g	.	8aa	16ee	8a	8c#	8aa	8a	8ee	8c#	8c#	.	.	8g
.	.	.	.	16ee	.	.	.	.	.	.	.	.	.	.
8aa	8g	.	8aa	16dd	8a	8B	8aa	8a	8dd	8B	8B	.	.	8g
.	.	.	.	16dd	.	.	.	.	.	.	.	.	.	.
=162	=162	=162	=162	=162	=162	=162	=162	=162	=162	=162	=162	=162	=162	=162
4.aa	2.g	4GG	4.aa	16cc#	4.a	8A	4.aa	4.a	8cc#	8A	8A	8gg	8g	2.g
.	.	.	.	16cc#	.	.	.	.	.	.	.	.	.	.
.	.	.	.	16b	.	8G	.	.	8b	8G	8G	16gg	16g	.
.	.	.	.	16b	.	.	.	.	.	.	.	16gg	16g	.
.	.	2r	.	16a	.	8F#	.	.	8a	8F#	8F#	8gg	8g	.
.	.	.	.	16a	.	.	.	.	.	.	.	.	.	.
16bb	.	.	16bb	16g	16b	8E	16bb	16b	8g	8E	8E	8gg	8g	.
16ccc#	.	.	16ccc#	16g	16cc#	.	16ccc#	16cc#	.	.	.	.	.	.
8ddd	.	.	8ddd	16f#	8dd	8D	8ddd	8dd	8f#	8D	8D	8gg	8g	.
.	.	.	.	16f#	.	.	.	.	.	.	.	.	.	.
8eee	.	.	8eee	16e	8ee	8C#	8eee	8ee	8e	8C#	8C#	8gg	8g	.
.	.	.	.	16e	.	.	.	.	.	.	.	.	.	.
=163	=163	=163	=163	=163	=163	=163	=163	=163	=163	=163	=163	=163	=163	=163
4fff#	4e	4C	4fff#	16d	4ff#	8BB	4fff#	4ff#	8d	8BB	8BB	4ee	4e	4cc
.	.	.	.	16d	.	.	.	.	.	.	.	.	.	.
.	.	.	.	16ff#	.	8d	.	.	8ff#	8d	8d	.	.	.
.	.	.	.	16ff#	.	.	.	.	.	.	.	.	.	.
8r	8r	2r	8r	16ee	8r	8c#	8r	8r	8ee	8c#	8c#	2r	2r	8r
.	.	.	.	16ee	.	.	.	.	.	.	.	.	.	.
8ff#	8e	.	8ff#	16dd	8f#	8B	8ff#	8ff#	8dd	8B	8B	.	.	8ee
.	.	.	.	16dd	.	.	.	.	.	.	.	.	.	.
8ff#	8e	.	8ff#	16cc#	8f#	8A	8ff#	8ff#	8cc#	8A	8A	.	.	8ee
.	.	.	.	16cc#	.	.	.	.	.	.	.	.	.	.
8ff#	8e	.	8ff#	16b	8f#	8G	8ff#	8ff#	8b	8G	8G	.	.	8ee
.	.	.	.	16b	.	.	.	.	.	.	.	.	.	.
=164	=164	=164	=164	=164	=164	=164	=164	=164	=164	=164	=164	=164	=164	=164
4.ff#	2.e	2.r	4.ff#	16a	4.f#	8F#	4.ff#	4.ff#	8a	8F#	8F#	8ee	8e	2.ee
.	.	.	.	16a	.	.	.	.	.	.	.	.	.	.
.	.	.	.	16g	.	8E	.	.	8g	8E	8E	16ee	16e	.
.	.	.	.	16g	.	.	.	.	.	.	.	16ee	16e	.
.	.	.	.	16f#	.	8D	.	.	8f#	8D	8D	8ee	8e	.
.	.	.	.	16f#	.	.	.	.	.	.	.	.	.	.
16gg	.	.	16gg	16e	16g	8C#	16gg	16gg	8ee	8C#	8C#	8ee	8e	.
16aa	.	.	16aa	16e	16a	.	16aa	16aa	.	.	.	.	.	.
8bb	.	.	8bb	16d	8b	8BB	8bb	8bb	8dd	8BB	8BB	8ee	8e	.
.	.	.	.	16d	.	.	.	.	.	.	.	.	.	.
8ccc#	.	.	8ccc#	16c#	8cc#	8AA	8ccc#	8ccc#	8cc#	8AA	8AA	8ee	8e	.
.	.	.	.	16c#	.	.	.	.	.	.	.	.	.	.
=165	=165	=165	=165	=165	=165	=165	=165	=165	=165	=165	=165	=165	=165	=165
2.ddd	4c	4C	8ddd	16B	4dd	4GG	8ddd	8ddd	8b	4GG	4GG	4cc	4c	4cc
.	.	.	.	16B	.	.	.	.	.	.	.	.	.	.
.	.	.	16ddd	16bb	.	.	8ddd	8ddd	8bb	.	.	.	.	.
.	.	.	16ddd	16bb	.	.	.	.	.	.	.	.	.	.
.	8r	2r	16ccc	16aa	8r	8r	8ccc	8ccc	8aa	8r	8r	2r	2r	8r
.	.	.	16ccc	16aa	.	.	.	.	.	.	.	.	.	.
.	8c	.	16bb	16gg	8d	8D	8bb	8bb	8gg	8D	8D	.	.	8c
.	.	.	16bb	16gg	.	.	.	.	.	.	.	.	.	.
.	8c	.	16aa	16ff#	8d	8D	8aa	8aa	8ff#	8D	8D	.	.	8c
.	.	.	16aa	16ff#	.	.	.	.	.	.	.	.	.	.
.	8c	.	16gg	16ee	8d	8D	8gg	8gg	8ee	8D	8D	.	.	8c
.	.	.	16gg	16ee	.	.	.	.	.	.	.	.	.	.
=166	=166	=166	=166	=166	=166	=166	=166	=166	=166	=166	=166	=166	=166	=166
2.ddd	4c	4C	16ff#	16dd	4.d	4.D	8ff#	8ff#	8dd	4.D	4.D	8cc	8c	4c
.	.	.	16ff#	16dd	.	.	.	.	.	.	.	.	.	.
.	.	.	16ee	16cc	.	.	8ee	8ee	8cc	.	.	16cc	16c	.
.	.	.	16ee	16cc	.	.	.	.	.	.	.	16cc	16c	.
.	2r	2r	16dd	16b	.	.	8dd	8dd	8b	.	.	8cc	8c	2r
.	.	.	16dd	16b	.	.	.	.	.	.	.	.	.	.
.	.	.	16cc	16a	16e	16E	8cc	8cc	8a	16E	16E	8cc	8c	.
.	.	.	16cc	16a	16f#	16F#	.	.	.	16F#	16F#	.	.	.
.	.	.	16b	16g	8g	8G	8b	8b	8g	8G	8G	8cc	8c	.
.	.	.	16b	16g	.	.	.	.	.	.	.	.	.	.
.	.	.	16a	16f#	8a	8A	8a	8a	8f#	8A	8A	8cc	8c	.
.	.	.	16a	16f#	.	.	.	.	.	.	.	.	.	.
=167	=167	=167	=167	=167	=167	=167	=167	=167	=167	=167	=167	=167	=167	=167
2.bb	4c	4C	16g	16g	4b	4B	8g	8g	8g	4B	4B	4cc	4c	4c
.	.	.	16g	16g	.	.	.	.	.	.	.	.	.	.
.	.	.	16bb	16gg	.	.	8bb	8bb	8gg	.	.	.	.	.
.	.	.	16bb	16gg	.	.	.	.	.	.	.	.	.	.
.	2r	2r	16aa	16ff#	8r	8r	8aa	8aa	8ff#	8r	8r	2r	2r	2r
.	.	.	16aa	16ff#	.	.	.	.	.	.	.	.	.	.
.	.	.	16gg	16ee	8B	8BB	8gg	8gg	8ee	8BB	8BB	.	.	.
.	.	.	16gg	16ee	.	.	.	.	.	.	.	.	.	.
.	.	.	16ff#	16dd#	8B	8BB	8ff#	8ff#	8dd#	8BB	8BB	.	.	.
.	.	.	16ff#	16dd#	.	.	.	.	.	.	.	.	.	.
.	.	.	16ee	16cc	8B	8BB	8ee	8ee	8cc	8BB	8BB	.	.	.
.	.	.	16ee	16cc	.	.	.	.	.	.	.	.	.	.
=168	=168	=168	=168	=168	=168	=168	=168	=168	=168	=168	=168	=168	=168	=168
2.bb	2.r	2.r	16dd#	16b	4.B	4.BB	8dd#	8dd#	8b	4.BB	4.BB	2.r	2.r	2.r
.	.	.	16dd#	16b	.	.	.	.	.	.	.	.	.	.
.	.	.	16cc	16a	.	.	8cc	8cc	8a	.	.	.	.	.
.	.	.	16cc	16a	.	.	.	.	.	.	.	.	.	.
.	.	.	16b	16g	.	.	8b	8b	8g	.	.	.	.	.
.	.	.	16b	16g	.	.	.	.	.	.	.	.	.	.
.	.	.	16a	16f#	16c#	16C#	8a	8a	8f#	16C#	16C#	.	.	.
.	.	.	16a	16f#	16d#	16D#	.	.	.	16D#	16D#	.	.	.
.	.	.	16g	16e	8e	8E	8g	8g	8e	8E	8E	.	.	.
.	.	.	16g	16e	.	.	.	.	.	.	.	.	.	.
.	.	.	16f#	16d#	8f#	8F#	8f#	8f#	8dd#	8F#	8F#	.	.	.
.	.	.	16f#	16d#	.	.	.	.	.	.	.	.	.	.
=169	=169	=169	=169	=169	=169	=169	=169	=169	=169	=169	=169	=169	=169	=169
4gg	2.r	2.r	16e	16e	4g	4G	4g	8g	8ee	4G	4G	2.r	2.r	2.r
.	.	.	16e	16e	.	.	.	.	.	.	.	.	.	.
.	.	.	16b	16a	.	.	.	8b	8ff#	.	.	.	.	.
.	.	.	16b	16a	.	.	.	.	.	.	.	.	.	.
2r	.	.	16ee	16g	2r	2r	2r	8ee	8gg	2r	2r	.	.	.
.	.	.	16ee	16g	.	.	.	.	.	.	.	.	.	.
.	.	.	16dd#	16f#	.	.	.	8dd#	8b	.	.	.	.	.
.	.	.	16dd#	16f#	.	.	.	.	.	.	.	.	.	.
.	.	.	16ff#	16a	.	.	.	8ff#	8b	.	.	.	.	.
.	.	.	16ff#	16a	.	.	.	.	.	.	.	.	.	.
.	.	.	16ee	16g	.	.	.	8ee	8b	.	.	.	.	.
.	.	.	16ee	16g	.	.	.	.	.	.	.	.	.	.
=170	=170	=170	=170	=170	=170	=170	=170	=170	=170	=170	=170	=170	=170	=170
2.r	2.r	2.r	16gg	16b	8e	8E	2.r	8gg	2.b	2.r	2.r	2.r	2.r	2.r
.	.	.	16gg	16b	.	.	.	.	.	.	.	.	.	.
.	.	.	16ff#	16b	8d#	8D#	.	8ff#	.	.	.	.	.	.
.	.	.	16ff#	16b	.	.	.	.	.	.	.	.	.	.
.	.	.	16aa	16b	8f#	8F#	.	8aa	.	.	.	.	.	.
.	.	.	16aa	16b	.	.	.	.	.	.	.	.	.	.
.	.	.	16gg	16b	8e	8E	.	8gg	.	.	.	.	.	.
.	.	.	16gg	16b	.	.	.	.	.	.	.	.	.	.
.	.	.	16bb	16b	8g	8G	.	8bb	.	.	.	.	.	.
.	.	.	16bb	16b	.	.	.	.	.	.	.	.	.	.
.	.	.	16dd	16b	8g#	8G#	.	8dd	.	.	.	.	.	.
.	.	.	16dd	16b	.	.	.	.	.	.	.	.	.	.
=171	=171	=171	=171	=171	=171	=171	=171	=171	=171	=171	=171	=171	=171	=171
16cc#	8g	4GG	16cc#	16a	4a	8A	16cc#	4cc#	4a	2.e	2.c#	2.r	2.r	8g
16b	.	.	16b	16b	.	.	16b	.	.	.	.	.	.	.
16a	16g	.	16a	16cc#	.	16A	16a	.	.	.	.	.	.	16g
16b	16g	.	16b	16b	.	16A	16b	.	.	.	.	.	.	16g
16cc#	8g	8r	16cc#	16a	2r	8A	16cc#	2r	2r	.	.	.	.	8g
16dd	.	.	16dd	16b	.	.	16dd	.	.	.	.	.	.	.
16ee	8g	8GG	16ee	16cc#	.	8A	16ee	.	.	.	.	.	.	8g
16ff#	.	.	16ff#	16dd	.	.	16ff#	.	.	.	.	.	.	.
16gg	8g	8GG	16gg	16ee	.	8A	16gg	.	.	.	.	.	.	8g
16ff#	.	.	16ff#	16dd	.	.	16ff#	.	.	.	.	.	.	.
16gg	8g	8GG	16gg	16ee	.	8A	16gg	.	.	.	.	.	.	8g
16ee	.	.	16ee	16cc#	.	.	16ee	.	.	.	.	.	.	.
=172	=172	=172	=172	=172	=172	=172	=172	=172	=172	=172	=172	=172	=172	=172
4ff#	4e	4GG	4ff#	4dd	8r	4A	4ff#	8r	8r	4f#	4d	8r	8r	4e
.	.	.	.	.	8f# 8a	.	.	8aa	8ff#	.	.	8g	8G	.
2r	2r	2r	2r	2r	8g 8e	2r	2r	8gg	8ee	2r	2r	8g	8G	2r
.	.	.	.	.	8f# 8d	.	.	8ff#	8dd	.	.	8g	8G	.
.	.	.	.	.	8c# 8e	.	.	8ee	8cc#	.	.	8g	8G	.
.	.	.	.	.	8d 8B	.	.	8dd	8b	.	.	8g	8G	.
=173	=173	=173	=173	=173	=173	=173	=173	=173	=173	=173	=173	=173	=173	=173
16cc#	8g	4GG	16cc#	16a	4c# 4A	8A	16cc#	4cc#	4a	2.e	2.c#	4g	4G	8g
16b	.	.	16b	16b	.	.	16b	.	.	.	.	.	.	.
16a	16g	.	16a	16cc#	.	16A	16a	.	.	.	.	.	.	16g
16b	16g	.	16b	16b	.	16A	16b	.	.	.	.	.	.	16g
16cc#	8g	8r	16cc#	16a	2r	8A	16cc#	2r	2r	.	.	2r	2r	8g
16dd	.	.	16dd	16b	.	.	16dd	.	.	.	.	.	.	.
16ee	8g	8GG	16ee	16cc#	.	8A	16ee	.	.	.	.	.	.	8g
16ff#	.	.	16ff#	16dd	.	.	16ff#	.	.	.	.	.	.	.
16gg	8g	8GG	16gg	16ee	.	8A	16gg	.	.	.	.	.	.	8g
16ff#	.	.	16ff#	16dd	.	.	16ff#	.	.	.	.	.	.	.
16gg	8g	8GG	16gg	16ee	.	8A	16gg	.	.	.	.	.	.	8g
16ee	.	.	16ee	16cc#	.	.	16ee	.	.	.	.	.	.	.
=174	=174	=174	=174	=174	=174	=174	=174	=174	=174	=174	=174	=174	=174	=174
4ff#	4e	4GG	4ff#	4dd	8r	4A	4ff#	8r	8r	4f#	4d	8r	8r	4cc
.	.	.	.	.	8a 8f#	.	.	8aa	8ff#	.	.	8g	8G	.
2r	2r	2r	2r	2r	8g 8e	2r	2r	8gg	8ee	2r	2r	8g	8G	2r
.	.	.	.	.	8f# 8d	.	.	8ff#	8dd	.	.	8g	8G	.
.	.	.	.	.	8c# 8e	.	.	8ee	8cc#	.	.	8g	8G	.
.	.	.	.	.	8d 8B	.	.	8dd	8b	.	.	8g	8G	.
=175	=175	=175	=175	=175	=175	=175	=175	=175	=175	=175	=175	=175	=175	=175
16cc#	8g	4GG	16cc#	16a	4c# 4A	8AA	16cc#	4cc#	4a	2.e	2.c#	4g	4G	8g
16b	.	.	16b	16b	.	.	16b	.	.	.	.	.	.	.
16a	16g	.	16a	16cc#	.	16AA	16a	.	.	.	.	.	.	16g
16b	16g	.	16b	16b	.	16AA	16b	.	.	.	.	.	.	16g
16cc#	8g	8r	16cc#	16a	2r	8AA	16cc#	2r	2r	.	.	2r	2r	8g
16dd	.	.	16dd	16b	.	.	16dd	.	.	.	.	.	.	.
16ee	8g	8GG	16ee	16cc#	.	8AA	16ee	.	.	.	.	.	.	8g
16ff#	.	.	16ff#	16dd	.	.	16ff#	.	.	.	.	.	.	.
16gg	8g	8GG	16gg	16ee	.	8AA	16gg	.	.	.	.	.	.	8g
16ff#	.	.	16ff#	16dd	.	.	16ff#	.	.	.	.	.	.	.
16gg	8g	8GG	16gg	16ee	.	8AA	16gg	.	.	.	.	.	.	8g
16ee	.	.	16ee	16cc#	.	.	16ee	.	.	.	.	.	.	.
=176	=176	=176	=176	=176	=176	=176	=176	=176	=176	=176	=176	=176	=176	=176
16ff#	8cc	8GG	16ff#	8dd	2f# 2d	8AA	16ff#	2ff#	2.dd	2f#	2d	8ee	8cc	8cc
16dd	.	.	16dd	.	.	.	16dd	.	.	.	.	.	.	.
16ee	16cc	16GG	16ee	16ee	.	16AA	16ee	.	.	.	.	16ee	16cc	16cc
16ff#	16cc	16GG	16ff#	16ff#	.	16AA	16ff#	.	.	.	.	16ee	16cc	16cc
16gg	8cc	8GG	16gg	16gg	.	8AA	16gg	.	.	.	.	8ee	8cc	8cc
16aa	.	.	16aa	16aa	.	.	16aa	.	.	.	.	.	.	.
16bb	8cc	8GG	16bb	16bb	.	8AA	16bb	.	.	.	.	8ee	8cc	8cc
16ccc#	.	.	16ccc#	16ccc#	.	.	16ccc#	.	.	.	.	.	.	.
8ddd	8cc	8GG	8ddd	8ddd	4g# 4d	8AA	8ddd	8dd	.	4d	4d	8cc	8cc	8cc
8gg#	8cc	8GG	8gg#	8gg#	.	8AA	8gg#	8gg#	.	.	.	8cc	8cc	8cc
=177	=177	=177	=177	=177	=177	=177	=177	=177	=177	=177	=177	=177	=177	=177
4aa	4G	4GG	8aa	8aa	4a 4c#	4AA	4aa	4aa	4cc#	4c#	4A	4dd	4g	4g
.	.	.	8a	8a	.	.	.	.	.	.	.	.	.	.
2r	2r	2r	8r	8r	8r	8r	2r	2r	2r	2r	2r	2r	2r	2r
.	.	.	8g#	8g#	8G#	8GG#	.	.	.	.	.	.	.	.
.	.	.	8a	8a	8A	8AA	.	.	.	.	.	.	.	.
.	.	.	8g#	8g#	8G#	8GG#	.	.	.	.	.	.	.	.
=178	=178	=178	=178	=178	=178	=178	=178	=178	=178	=178	=178	=178	=178	=178
2.r	2.r	2.r	8a	8a	8A	8AA	2.r	2.r	2.r	2.r	2.r	2.r	2.r	2.r
.	.	.	8a#	8a#	8A#	8AA#	.	.	.	.	.	.	.	.
.	.	.	8r	8r	8r	8r	.	.	.	.	.	.	.	.
.	.	.	8a#	8a#	8A#	8AA#	.	.	.	.	.	.	.	.
.	.	.	8b	8b	8B	8BB	.	.	.	.	.	.	.	.
.	.	.	8a#	8a#	8A#	8AA#	.	.	.	.	.	.	.	.
=179	=179	=179	=179	=179	=179	=179	=179	=179	=179	=179	=179	=179	=179	=179
2.r	2.r	2.r	8b	8b	8B	8BB	2.r	2.r	2.r	2.r	2.r	2.r	2.r	2.r
.	.	.	8cc#	8cc#	8c#	8C#	.	.	.	.	.	.	.	.
.	.	.	8r	8r	8r	8r	.	.	.	.	.	.	.	.
.	.	.	8cc#	8cc#	8c#	8C#	.	.	.	.	.	.	.	.
.	.	.	8dd	8dd	8d	8D	.	.	.	.	.	.	.	.
.	.	.	8cc#	8cc#	8c#	8C#	.	.	.	.	.	.	.	.
=180	=180	=180	=180	=180	=180	=180	=180	=180	=180	=180	=180	=180	=180	=180
2.r	2.r	2.r	8dd	8dd	8d	8D	2.r	2.r	2.r	2.r	2.r	2.r	2.r	2.r
.	.	.	8dd#	8dd#	8d#	8D#	.	.	.	.	.	.	.	.
.	.	.	8ee	8ee	8e	8E	.	.	.	.	.	.	.	.
.	.	.	8dd#	8dd#	8d#	8D#	.	.	.	.	.	.	.	.
.	.	.	8ee	8ee	8e	8E	.	.	.	.	.	.	.	.
.	.	.	8ff#	8ff#	8f#	8F#	.	.	.	.	.	.	.	.
=181	=181	=181	=181	=181	=181	=181	=181	=181	=181	=181	=181	=181	=181	=181
4r	4r	4r	8gg	8gg	8g	8G	4r	4r	4r	4r	4r	4r	4r	4r
.	.	.	8r	8r	8r	8r	.	.	.	.	.	.	.	.
4ccc#	4g	4GG	8ccc#	8a 8ee	8G	8GG	4aa	4ccc#	4ee	4G	4G	4dd	4g	4dd
.	.	.	8r	8r	8r	8r	.	.	.	.	.	.	.	.
4ddd	4c	4C	8ddd	8ff# 8a	8F#	8FF#	4aa	4ddd	4ff#	4F#	4F#	4ee	4cc	4cc
.	.	.	8r	8r	8r	8r	.	.	.	.	.	.	.	.
=182	=182	=182	=182	=182	=182	=182	=182	=182	=182	=182	=182	=182	=182	=182
4bb	4c	4C	4bb	4dd 4d	4G	4GG	4bb	4bb	4dd	4G	4G	4ff	4cc	4cc
4r	4r	4r	4r	4r	4r	4r	4r	4r	4r	4r	4r	4r	4r	4r
4ccc#	4g	4GG	4cc# 4e	4A 4g	4A	4AA	4gg	4ee	4cc#	4A	4A	4dd	4g	4g
=183	=183	=183	=183	=183	=183	=183	=183	=183	=183	=183	=183	=183	=183	=183
4ddd	4c	4C	4dd 4d	8f#	4d	4D	4ff#	4ff#	4dd	4D	4D	4cc	4e	4c
.	.	.	.	8dd	.	.	.	.	.	.	.	.	.	.
2r	2r	2r	8r	8cc#	2r	2r	2r	2r	2r	2r	2r	2r	2r	2r
.	.	.	8dd	8cc	.	.	.	.	.	.	.	.	.	.
.	.	.	8dd	8b	.	.	.	.	.	.	.	.	.	.
.	.	.	8dd	8b-	.	.	.	.	.	.	.	.	.	.
=184	=184	=184	=184	=184	=184	=184	=184	=184	=184	=184	=184	=184	=184	=184
2.r	2.r	2.r	4.dd	8a	2.r	2.r	2.r	4.r	2.r	2.r	2.r	2.r	2.r	2.r
.	.	.	.	8g#	.	.	.	.	.	.	.	.	.	.
.	.	.	.	8g	.	.	.	.	.	.	.	.	.	.
.	.	.	16ee	8f#	.	.	.	8dd	.	.	.	.	.	.
.	.	.	16ff#	.	.	.	.	.	.	.	.	.	.	.
.	.	.	8gg	8e	.	.	.	8ee	.	.	.	.	.	.
.	.	.	8aa	8d	.	.	.	8ff#	.	.	.	.	.	.
=185	=185	=185	=185	=185	=185	=185	=185	=185	=185	=185	=185	=185	=185	=185
2.r	2.r	2.r	4bb	4c#	2.r	2.r	2.r	4gg	2.r	2.r	2.r	2.r	2.r	2.r
.	.	.	8r	8r	.	.	.	8r	.	.	.	.	.	.
.	.	.	8aa	8d	.	.	.	8ff#	.	.	.	.	.	.
.	.	.	8gg	8e	.	.	.	8ee	.	.	.	.	.	.
.	.	.	8ff#	8f#	.	.	.	8dd	.	.	.	.	.	.
=186	=186	=186	=186	=186	=186	=186	=186	=186	=186	=186	=186	=186	=186	=186
2.r	2.r	2.r	4ee	4g	2.r	2.r	2.r	4b	2.r	2.r	2.r	2.r	2.r	2.r
.	.	.	8r	8r	.	.	.	8r	.	.	.	.	.	.
.	.	.	8ee	8G	.	.	.	8gg	.	.	.	.	.	.
.	.	.	8dd	8A	.	.	.	8ff#	.	.	.	.	.	.
.	.	.	8cc#	8A	.	.	.	8ee	.	.	.	.	.	.
=187	=187	=187	=187	=187	=187	=187	=187	=187	=187	=187	=187	=187	=187	=187
[2.ddd	4.c	2.C	16dd	4.r	8r	8r	[2.ddd	[2.dd	8r	8r	8r	4cc	4c	4.cc
.	.	.	16ddd	.	.	.	.	.	.	.	.	.	.	.
.	.	.	16ddd	.	8d	8D	.	.	8d	8D	8D	.	.	.
.	.	.	16ddd	.	.	.	.	.	.	.	.	.	.	.
.	.	.	16ddd	.	8e-	8E-	.	.	8e-	8E-	8E-	8r	8r	.
.	.	.	16ddd	.	.	.	.	.	.	.	.	.	.	.
.	8c	.	16ddd	8dd	8e	8E	.	.	8e	8E	8E	8cc	8c	8cc
.	.	.	16ddd	.	.	.	.	.	.	.	.	.	.	.
.	8c	.	16ddd	8dd	8f	8F	.	.	8f	8F	8F	8cc	8c	8cc
.	.	.	16ddd	.	.	.	.	.	.	.	.	.	.	.
.	8c	.	16ddd	8dd	8f#	8F#	.	.	8f#	8F#	8F#	8cc	8c	8cc
.	.	.	16ddd	.	.	.	.	.	.	.	.	.	.	.
=188	=188	=188	=188	=188	=188	=188	=188	=188	=188	=188	=188	=188	=188	=188
2.ddd_	4.c	2.C	16ddd	[2dd	8g	8G	2.ddd_	2dd_	8g	8G	8G	4.cc	4.c	4.cc
.	.	.	16ddd	.	.	.	.	.	.	.	.	.	.	.
.	.	.	16ddd	.	8g#	8G#	.	.	8g#	8G#	8G#	.	.	.
.	.	.	16ddd	.	.	.	.	.	.	.	.	.	.	.
.	.	.	16ddd	.	8a	8A	.	.	8a	8A	8A	.	.	.
.	.	.	16ddd	.	.	.	.	.	.	.	.	.	.	.
.	8c	.	16ddd	.	8a#	8A#	.	.	8a#	8A#	8A#	8cc	8c	8cc
.	.	.	16ddd	.	.	.	.	.	.	.	.	.	.	.
.	8c	.	16ddd	8.dd]	8b	8B	.	8.dd]	8b	8B	8B	8cc	8c	8cc
.	.	.	16ddd	.	.	.	.	.	.	.	.	.	.	.
.	8c	.	16ddd	.	8a	8A	.	.	8a	8A	8A	8cc	8c	8cc
.	.	.	16ddd	32ee	.	.	.	32ee	.	.	.	.	.	.
.	.	.	.	32ff#	.	.	.	32ff#	.	.	.	.	.	.
=189	=189	=189	=189	=189	=189	=189	=189	=189	=189	=189	=189	=189	=189	=189
4ddd]	4c	4C	4ddd	4gg	4b	4G	4ddd]	4gg	4b	4G	4G	4cc	4c	4cc
8r	2r	2r	8r	8r	8r	8r	8r	2r	2r	8r	8r	2r	2r	2r
8ddd	.	.	16ddd	16a	8f#	8F#	8aa	.	.	8F#	8F#	.	.	.
.	.	.	16aa	16aa	.	.	.	.	.	.	.	.	.	.
8ccc#	.	.	16ccc#	16a	8e	8E	8aa	.	.	8E	8E	.	.	.
.	.	.	16aa	16gg	.	.	.	.	.	.	.	.	.	.
8ddd	.	.	16ddd	16a	8d	8D	8aa	.	.	8D	8D	.	.	.
.	.	.	16aa	16ff#	.	.	.	.	.	.	.	.	.	.
=190	=190	=190	=190	=190	=190	=190	=190	=190	=190	=190	=190	=190	=190	=190
4eee	4G	4GG	4eee	4a 4ee	4g	4C#	4aa	4gg	4a	4C#	4C#	4gg	4g	4g
8r	2r	2r	8r	8r	8r	8r	8r	2r	2r	8r	8r	2r	2r	2r
8ddd	.	.	16ddd	16a	8f#	8F#	8aa	.	.	8F#	8F#	.	.	.
.	.	.	16aa	16aa	.	.	.	.	.	.	.	.	.	.
8ccc#	.	.	16ccc#	16a	8e	8E	8aa	.	.	8E	8E	.	.	.
.	.	.	16aa	16gg	.	.	.	.	.	.	.	.	.	.
8ddd	.	.	16ddd	16a	8d	8D	8aa	.	.	8D	8D	.	.	.
.	.	.	16aa	16ff#	.	.	.	.	.	.	.	.	.	.
=191	=191	=191	=191	=191	=191	=191	=191	=191	=191	=191	=191	=191	=191	=191
4eee	4G	4GG	4eee	4a 4ee	4g	4C#	4aa	4aa	4a	4C#	4C#	4gg	4g	4g
8r	8r	8r	8r	8r	8r	2r	8r	8r	8r	8r	8r	8r	8r	8r
16aa	16g	16GG	16a 16aa	16aa 16a	16A	.	16aa	16aa	16a	16A	16A	16gg	16g	16g
16aa	16g	16GG	16aa 16a	16aa 16a	16A	.	16aa	16aa	16a	16A	16A	16gg	16g	16g
8aa	8g	8GG	8aa 8a	8aa 8a	8A	.	8aa	8aa	8a	8A	8A	8gg	8g	8g
8aa	8g	8GG	8aa 8a	8aa 8a	8A	.	8aa	8aa	8a	8A	8A	8gg	8g	8g
=192	=192	=192	=192	=192	=192	=192	=192	=192	=192	=192	=192	=192	=192	=192
4aa	4g	4GG	4aa 4a	4a 4aa	4A	2.r	4aa	4aa	4a	4AA	4AA	4gg	4g	4g
8r	8r	8r	8r	8r	8r	.	8r	8r	8r	8r	8r	8r	8r	8r
16aa	16g	16GG	16aa 16a	16aa 16a	16A	.	16aa	16aa	16a	16A	16A	16gg	16g	16g
16aa	16g	16GG	16aa 16a	16a 16aa	16A	.	16aa	16aa	16a	16A	16A	16gg	16g	16g
8aa	8g	8GG	8aa 8a	8aa 8a	8A	.	8aa	8aa	8a	8A	8A	8gg	8g	8g
8aa	8g	8GG	8aa 8a	8a 8aa	8A	.	8aa	8aa	8a	8A	8A	8gg	8g	8g
=193	=193	=193	=193	=193	=193	=193	=193	=193	=193	=193	=193	=193	=193	=193
4aa	4g	4GG	4aa 4a	4aa 4a	4A	2.r	4aa	4aa	4a	4AA	4AA	4gg	4g	4g
8r	8r	8r	8r	8r	8r	.	8r	8r	8r	8r	8r	8r	8r	8r
16aa	16g	16GG	16aa 16a	16aa 16a	16A	.	16aa	16aa	16a	16A	16A	16gg	16g	16g
16aa	16g	16GG	16aa 16a	16aa 16a	16A	.	16aa	16aa	16a	16A	16A	16gg	16g	16g
8aa	8g	8GG	8aa 8a	8a 8aa	8A	.	8aa	8aa	8a	8A	8A	8gg	8g	8g
8aa	8g	8GG	8a 8aa	8aa 8a	8A	.	8aa	8aa	8a	8A	8A	8gg	8g	8g
=194	=194	=194	=194	=194	=194	=194	=194	=194	=194	=194	=194	=194	=194	=194
2fff	4.c	8C	2fff	2.ff 2.a	2.A 2.F	8D	2fff	2ff	2.a	2f	2f	2.gg	2.g	4.g
.	.	16C	.	.	.	16D	.	.	.	.	.	.	.	.
.	.	16C	.	.	.	16D	.	.	.	.	.	.	.	.
.	.	8C	.	.	.	8D	.	.	.	.	.	.	.	.
.	8c	8C	.	.	.	8D	.	.	.	.	.	.	.	8g
4ddd	8c	8C	4ddd	.	.	8D	4ddd	4ddd	.	4d	4d	.	.	8g
.	8c	8C	.	.	.	8D	.	.	.	.	.	.	.	8g
=195	=195	=195	=195	=195	=195	=195	=195	=195	=195	=195	=195	=195	=195	=195
4bb-	8c	8C	4bb-	2.f	2.D	8D	4bb-	4bb-	2.ff	4B-	4B-	2.cc	2.cc	8cc
.	8c	16C	.	.	.	16D	.	.	.	.	.	.	.	8cc
.	.	16C	.	.	.	16D	.	.	.	.	.	.	.	.
4aa	8c	8C	4aa	.	.	8D	4aa	4aa	.	4A	4A	.	.	8cc
.	8c	8C	.	.	.	8D	.	.	.	.	.	.	.	8cc
4gg#	8c	8C	4gg#	.	.	8D	4gg#	4gg#	.	4G#	4G#	.	.	8cc
.	8c	8C	.	.	.	8D	.	.	.	.	.	.	.	8cc
=196	=196	=196	=196	=196	=196	=196	=196	=196	=196	=196	=196	=196	=196	=196
4aa	2G	2GG	4aa	2e	2.A	8C#	4aa	4aa	2ee	4A	4A	2dd	2g	2g
.	.	.	.	.	.	8C#	.	.	.	.	.	.	.	.
4gg	.	.	4gg	.	.	8C#	4gg	4gg	.	4g	4A	.	.	.
.	.	.	.	.	.	8C#	.	.	.	.	.	.	.	.
4ff#	4c	4C	4ff#	8d	.	8D	4ff#	4ff#	4dd	4f#	4A	4ee	4cc	4g
.	.	.	.	8a	.	8D	.	.	.	.	.	.	.	.
=197	=197	=197	=197	=197	=197	=197	=197	=197	=197	=197	=197	=197	=197	=197
4ee	4G	4GG	4ee	4g	4B	8G	4ee	4gg	4ee	4e	8G	4ff	4dd	4g
.	.	.	.	.	.	16F#	.	.	.	.	16F#	.	.	.
.	.	.	.	.	.	16G	.	.	.	.	16G	.	.	.
4dd	4G	4GG	4dd	4f#	4A	8A	4dd	4ff#	4dd	4d	8A	4ee	4cc	4g
.	.	.	.	.	.	8G	.	.	.	.	8G	.	.	.
4cc#	4r	4r	4cc#	4e	4A	8A	4cc#	4ee	4cc#	4c#	8A	4dd	4g	4r
.	.	.	.	.	.	8AA	.	.	.	.	8AA	.	.	.
=198	=198	=198	=198	=198	=198	=198	=198	=198	=198	=198	=198	=198	=198	=198
8dd	4c	4C	8dd	8d	8d	8D	8dd	4dd]	4dd	8d	8D	4cc	4e	4c
8ff#	.	.	8ff#	8a	8r	8r	8ff#	.	.	8r	8r	.	.	.
8ee	2r	2r	8ee	8g	8G	8GG	8ee	2r	2r	8G	8G	2r	2r	2r
8gg	.	.	8gg	8b	8r	8r	8gg	.	.	8r	8r	.	.	.
8cc#	.	.	8cc#	8e	8A	8AA	8cc#	.	.	8A	8A	.	.	.
8ee	.	.	8ee	8g	8r	8r	8ee	.	.	8r	8r	.	.	.
=199	=199	=199	=199	=199	=199	=199	=199	=199	=199	=199	=199	=199	=199	=199
4dd	2.r	2.r	4dd	4f#	4d	4D	4dd	8ff#	8dd	8d	8d	2.r	2.r	2.r
.	.	.	.	.	.	.	.	8aa	8ff#	8r	8r	.	.	.
2r	.	.	2r	2r	2r	2r	2r	8gg	8ee	8G	8G	.	.	.
.	.	.	.	.	.	.	.	8bb	8gg	8r	8r	.	.	.
.	.	.	.	.	.	.	.	8ee	8cc#	8A	8A	.	.	.
.	.	.	.	.	.	.	.	8gg	8ee	8r	8r	.	.	.
=200	=200	=200	=200	=200	=200	=200	=200	=200	=200	=200	=200	=200	=200	=200
8aa	2r	2r	16aa	16aa	8f#	8F#	8aa	8ff#	8dd	8F#	8F#	4gg	4ee	2r
.	.	.	16aa	16aa	.	.	.	.	.	.	.	.	.	.
8ddd	.	.	16ddd	16ff#	8d	8D	8ddd	8ddd	8aa	8D	8D	.	.	.
.	.	.	16ddd	16ff#	.	.	.	.	.	.	.	.	.	.
8bb	.	.	16bb	16bb	8g	8G	8bb	8bb	8bb	8G	8G	4ff	4dd	.
.	.	.	16bb	16bb	.	.	.	.	.	.	.	.	.	.
8eee	.	.	16eee	16gg	8e	8E	8eee	8gg	8gg	8E	8E	.	.	.
.	.	.	16eee	16gg	.	.	.	.	.	.	.	.	.	.
8ee	4g	4GG	16ee	16ee	8g	8A	8ee	8ee	8ee	8A	8A	4dd	4g	4dd
.	.	.	16ee	16ee	.	.	.	.	.	.	.	.	.	.
8ccc#	.	.	16ccc#	16gg	8e	8AA	8ccc#	8aa	8cc#	8AA	8AA	.	.	.
.	.	.	16ccc#	16gg	.	.	.	.	.	.	.	.	.	.
=201	=201	=201	=201	=201	=201	=201	=201	=201	=201	=201	=201	=201	=201	=201
8ddd	4e	4C	4ddd	4ff#	4f#	4D	8ddd	8ff#	8dd	8r	8r	8ee	8cc	4cc
8aa	.	.	.	.	.	.	8aa	8aa	8a	8A	8A	8gg	8g	.
8ff#	4r	4r	4r	4r	4r	4r	8ff#	8ff#	8f#	8f#	8f#	8ee	8e	4r
8dd	.	.	.	.	.	.	8dd	8dd	8d	8d	8d	8cc	8c	.
8ee	4g	4GG	4ccc# 4ee	4a 4ee	4A 4g	4A	8ee	8ee	8e	8e	8e	4dd	4g	4dd
8a	.	.	.	.	.	.	8a	8a	8a	8A	8A	.	.	.
=202	=202	=202	=202	=202	=202	=202	=202	=202	=202	=202	=202	=202	=202	=202
8dd	4cc	4C	4ff# 4ddd	4ff# 4d 4a	4f# 4A	4D	8dd	8ff#	8d	8d	8d	8ee	8cc	4ee
8aa	.	.	.	.	.	.	8aa	8aa	8a	8A	8A	8gg	8g	.
8ff#	4r	4r	4r	4r	4r	4r	8ff#	8ff#	8f#	8f#	8f#	8ee	8e	4r
8dd	.	.	.	.	.	.	8dd	8dd	8d	8d	8d	8cc	8c	.
8ee	4g	4GG	4ccc# 4ee	4ee 4a	4A 4g	4A	8ee	8ee	8e	8e	8e	4dd	4g	4dd
8a	.	.	.	.	.	.	8a	8a	8a	8A	8A	.	.	.
=203	=203	=203	=203	=203	=203	=203	=203	=203	=203	=203	=203	=203	=203	=203
4dd	4e	4C	4ddd 4dd	4ff# 4d 4a	4f# 4A	4D	4dd	4dd	4f#	4d	4d	4cc	4e	4cc
2r	2r	2r	2r	2r	2r	2r	2r	2r	2r	2r	2r	2r	2r	2r
==	==	==	==	==	==	==	==	==	==	==	==	==	==	==
*-	*-	*-	*-	*-	*-	*-	*-	*-	*-	*-	*-	*-	*-	*-
!!!RWG1: This file contains only pitch and duration data.
!!!RWG2: Transposing instruments are not transposed.
!!!RWG3: Spines may have incompatible meters.
!!!RWG4: Durations of rests and tied notes may be interpreted.
!!!RWG: Key is interpreted using the Humdrum key tool.
!!!OPT: The Miracle
!!!AFT: stage1
!!!END: 1997/04/15
!!format changes:
!!content changes:
!!public access: complete
!!!KEY: 3805544340
!!!EMD: Converted from MuseData to Humdrum Dec 16, 2000, by Andreas Kornstaedt using muse2kern.
